!!!COM: Scriabin, Alexander
!!!OTL: Fantasy
!!!OPS: 28
!!!ODT: 1901
!!!AGN: Fantasy
**kern	**kern
*staff2	*staff1
*clefF4	*clefG2
*k[f#c#]	*k[f#c#]
*b:	*b:
*M3/4	*M3/4
=1	=1
2.r	4F# 4f#
.	[4G [4g
.	12GL] 12g]
.	12.F# 12.f#
.	24F#Jk 24f#
=2	=2
*^	*^
12rc	12rEE	2F# 2f#	2.A#X 2.c#
12FF#L 12F#	[6FF#	.	.
12EEJ 12E	.	.	.
4.EE 4.E	4.FF#]	.	.
.	.	4F# 4f#	.
8rc	8rEE	.	.
=3	=3	=3	=3
12rc	12rEE	4F# 4f#	2G#X 2B
12FF#L 12F#	[6FF#	.	.
12DDJ 12D	.	.	.
4.DD 4.D	4.FF#]	[4B 4f# 4g#X [4b	.
.	.	12BL] 12b]	4G#
.	.	12.F# 12.f#	.
8rc	8rEE	.	.
.	.	24F#Jk 24f#	.
=4	=4	=4	=4
12rc	12rEE	2F# 2f#	2.A#X 2.e
12FF#L 12F#	[6FF#	.	.
12CC#J 12C#	.	.	.
4.CC# 4.C#	4.FF#]	.	.
.	.	6E#X 6e#X	.
8rc	8rEE	.	.
.	.	12F# 12f#	.
=5	=5	=5	=5
*	*^	*	*
4rc	4rEE	12FF#/L 12F#	4G 4g	2B 2d 2f#
.	.	12DD/ 12D	.	.
.	.	12BBB/J 12BB	.	.
.	.	[8qBBB/ [8qBB	.	.
4G 4g	8.dL	4BBB/] 4BB]	4f# 4b 4dd 4ff#	.
.	16F#Jk	.	.	.
4rc	6F#	4r	20e#XLL 20b 20dd 20ee#X	4B 4d
.	.	.	20d 20dd	.
.	.	.	20B 20b	.
.	.	.	20F# 20f#	.
.	12FF# 12F#	.	.	.
.	.	.	20GJJ 20g	.
=6	=6	=6	=6	=6
4rc	4rEE	12FF#/L 12F#	4G#X 4g#X	2B 2d 2f#
.	.	12DD/ 12D	.	.
.	.	12BBB/J 12BB	.	.
.	.	[8qBBB/ [8qBB	.	.
6G#X 6g#X	8.dL	4BBB/] 4BB]	4.f# 4.dd 4.ff#	.
12G##X 12g##X	.	.	.	.
.	16F#Jk	.	.	.
4rc	4F#	12FF#/L 12F#	.	4B 4d 4f#
.	.	12DD/ 12D	.	.
.	.	.	8G##X 8g##X	.
.	.	12BBB/J 12BB	.	.
=7	=7	=7	=7	=7
4rc	4rEE	12FF#/L 12F#	4.G##X 4.B 4.g##X	2c# 2f#
.	.	12CC#/ 12C#	.	.
.	.	12FFF#/J 12FF#	.	.
8rc	8.c#L	4FFF#/ 4FF#	.	.
4A#X 4a#X	.	.	4A#X 4a#X	.
.	16F#Jk	.	.	.
.	4FF# 4F#	4r	.	4c# 4f#
8rc	.	.	8A# 8a#	.
*	*v	*v	*	*
=8	=8	=8	=8
2.rc	2.EE 2.E	4A#X 4a#X	2.c# 2.g
.	.	4An 4an	.
.	.	4A#X 4a#X	.
=9	=9	=9	=9
4rc	12rEE	4B 4b	2d 2g
.	12GGL 12G	.	.
.	12DDJ 12D	.	.
.	[8qDD\ [8qD	.	.
4B 4b	4DD] 4D]	4g 4dd 4gg	.
4rc	4rEE	20f#LL 20b 20ff#	8BL 8g
.	.	20e 20ee	.
.	.	20d 20dd	.
.	.	.	8dJ 8g
.	.	20A#XJ 20a#X	.
.	.	40r	.
.	.	40BJkk 40b	.
=10	=10	=10	=10
4rc	12GGL 12G	2d 2dd	2f# 2b
.	12DD 12D	.	.
.	12BBBJ 12BB	.	.
4rc	4BBB 4BB	.	.
4B 4b	12rEE	4c# 4cc#	4e#X 4g
.	12GGL 12G	.	.
.	12CC#J 12C#	.	.
=11	=11	=11	=11
*	*^	*	*
4A#X 4a#X	4rEE	12F#/L	4c# 4cc#	4f#
.	.	12CC#/ 12C#	.	.
.	.	12FFF#/J 12FF#	.	.
.	.	[8qFFF#/ [8qFF#	.	.
4A#	[4BB#X	4FFF#/] 4FF#]	[4dd	4.f#
4A#	20BB#LL]	4r	20ddLL]	.
.	20C#	.	20cc#	.
.	20DJ	.	20a#X	.
.	.	.	.	8rc
.	20r	.	20e#XJ	.
.	20C#Jk	.	40r	.
.	.	.	40f#Jkk	.
*	*v	*v	*	*
=12	=12	=12	=12
4C# 4A#X	12rEE	4a#X	4f#
.	12CC#L 12C#	.	.
.	12FFF#J 12FF#	.	.
4C# 4A#	4FF#	4cc#	4f#
8C#L 8F#	4rEE	20bLL	8c#
.	.	20a#	.
.	.	20f#	.
8F#J 8A#	.	.	8rc
.	.	20B#X	.
.	.	20c#JJ	.
*v	*v	*	*
=13	=13	=13
2.r	4F# 4f#	2.A#X 2.c#
.	[4G [4g	.
.	12GL] 12g]	.
.	12.F# 12.f#	.
.	24F#Jk 24f#	.
=14	=14	=14
*^	*	*
12rc	12rEE	2F# 2f#	2.A#X 2.c#
12FF#L 12F#	[6FF#	.	.
12EEJ 12E	.	.	.
4.EE 4.E	4.FF#]	.	.
.	.	4F# 4f#	.
[8EE [8E	8rEE	.	.
=15	=15	=15	=15
12EEL] 12E]	12rEE	4F# 4f#	2G#X 2B
12FF# 12F#	[6FF#	.	.
12DDJ 12D	.	.	.
4.DD 4.D	4.FF#]	[4B 4f# 4g#X [4b	.
.	.	12BL] 12b]	4G#
.	.	12.F# 12.f#	.
[8DD [8D	8rEE	.	.
.	.	24F#Jk 24f#	.
=16	=16	=16	=16
12DDL] 12D]	12rEE	2F# 2f#	2.A#X 2.e
12FF# 12F#	[6FF#	.	.
12CC#J 12C#	.	.	.
4.CC# 4.C#	4.FF#]	.	.
.	.	6E#X 6e#X	.
8CC# 8C#	8rEE	.	.
.	.	12F# 12f#	.
=17	=17	=17	=17
*	*^	*	*
4rc	4rEE	12FF#/L 12F#	4G 4g	2B 2d 2f#
.	.	12DD/ 12D	.	.
.	.	12BBB/J 12BB	.	.
.	.	[8qBBB/ [8qBB	.	.
4G 4g	8.dL	4BBB/] 4BB]	4f# 4b 4dd 4ff#	.
.	16F#Jk	.	.	.
4rc	6F#	4r	20e#XLL 20b 20dd 20ee#X	4B 4d
.	.	.	20d 20dd	.
.	.	.	20B 20b	.
.	.	.	20F# 20f#	.
.	12FF# 12F#	.	.	.
.	.	.	20GJJ 20g	.
=18	=18	=18	=18	=18
4rc	4rEE	12FF#/L 12F#	4G#X 4g#X	2B 2d 2f#
.	.	12DD/ 12D	.	.
.	.	12BBB/J 12BB	.	.
.	.	[8qBBB/ [8qBB	.	.
6G#X 6g#X	8.dL	4BBB/] 4BB]	4.f# 4.dd 4.ff#	.
12G##X 12g##X	.	.	.	.
.	16F#Jk	.	.	.
4rc	4F#	12FF#/L 12F#	.	4B 4d 4f#
.	.	12DD/ 12D	.	.
.	.	.	8G##X 8g##X	.
.	.	12BBB/J 12BB	.	.
=19	=19	=19	=19	=19
4rc	4rEE	12FF#/L 12F#	4.G##X 4.B 4.g##X	2c# 2f#
.	.	12CC#/ 12C#	.	.
.	.	12FFF#/J 12FF#	.	.
8rc	8.c#L	4FFF#/ 4FF#	.	.
4A#X 4a#X	.	.	8A#X 8a#X	.
.	16F#Jk	.	.	.
.	4FF# 4F#	4r	8.dL 8.dd	4f# 4a#
8rc	.	.	.	.
.	.	.	16c#Jk 16cc#	.
*v	*v	*v	*	*
=20	=20	=20
4FF# 4F#	4c# 4cc#	4f# 4a#X
4DD 4D	4B#X 4b#X	4f# 4an
4CC# 4C#	4c# 4cc#	4e#X 4a
=21	=21	=21
*^	*	*^
*	*^	*	*	*
4rC	4rEE	12AA/L 12A	4d 4dd	2a 2cc#	8f#\L
.	.	12CC#/ 12C#	.	.	.
.	.	.	.	.	8a\J
.	.	12FFF#/J 12FF#	.	.	.
.	.	[8qFFF#/ [8qFF#	.	.	.
8.AL 8.a	4d	4.FFF#/] 4.FF#]	4cc# 4ff# 4aa 4ccc#	.	4a\
16C#Jk 16c#	.	.	.	.	.
8C# 8c#	4rEE	.	20b#XLL 20ff# 20aa 20bb#X	4rc	4r
.	.	.	20a 20aa	.	.
.	.	.	20f# 20ff#	.	.
8rc	.	8AA\ 8A	.	.	.
.	.	.	20c# 20cc#	.	.
.	.	.	20dJJ 20dd	.	.
=22	=22	=22	=22	=22	=22
4rc	4rEE	12AA/L 12A	4d#X 4dd#X	2a 2cc#X	8fn\L
.	.	12CC#/ 12C#	.	.	.
.	.	.	.	.	8a\J
.	.	12FFFn/J 12FFn	.	.	.
.	.	[8qFFF/ [8qFF	.	.	.
8.AL 8.a	4d#X	4FFF/] 4FF]	4.cc# 4.aa 4.ccc#	.	4a/
16C#Jk 16c#	.	.	.	.	.
8C# 8c#	4rEE	12r	.	4a 4cc#	4r
.	.	12CC#/L 12C#	.	.	.
8rc	.	.	8d# 8dd#	.	.
.	.	12FFF/J 12FF	.	.	.
*	*	*	*	*v	*v
=23	=23	=23	=23	=23
4rc	4rEE	12AA/L 12A	6d#X 6dd#X	4a 4cc#
.	.	12CC#/ 12C#	.	.
.	.	12EEE/J 12EE	12e 12ee	.
.	.	[8qEEE/ [8qEE	.	.
8.AL 8.a	4e	4EEE/] 4EE]	6ddn 6dddn	4a 4ee
.	.	.	12cc# 12ccc#	.
16C#Jk 16c#	.	.	.	.
8C# 8c#	4rEE	4r	16bLL 16bb	8cc#L 8ee
.	.	.	16a 16aa	.
8rc	.	.	16d#XJ 16dd#X	8aJ 8cc#
.	.	.	32r	.
.	.	.	32eJkk 32ee	.
*	*v	*v	*	*
=24	=24	=24	=24
*	*	*	*^
4rc	12BBL 12B	4.e#X 4.ee#X	4a 4dd	4r
.	12EEn 12En	.	.	.
.	12EEEJ 12EE	.	.	.
.	[8qEEE\ [8qEE	.	.	.
8.BL 8.b	4EEE] 4EE]	.	4a 4dd	4r
.	.	8f# 8ff#	.	.
16EJk 16en	.	.	.	.
8E 8e	12rEE	6g 6gg	4een	6cc#\
.	12DL 12d	.	.	.
8rc	.	.	.	.
.	12EEJ 12E	12g#X 12gg#X	.	12b\
*	*	*	*v	*v
=25	=25	=25	=25
*	*^	*	*
4rc	4rEE	12C#/L 12c#	4g#X 4gg#X	4b 4ee
.	.	12EE/ 12E	.	.
.	.	12AAA/J 12AA	.	.
.	.	[8qAAA/ [8qAA	.	.
12c#L 12cc#	4c#	4AAA/] 4AA]	4a 4ee 4aa	4rc
12A 12a	.	.	.	.
12G#XJ 12g#X	.	.	.	.
6Gn 6gn	4A 4c#	4r	20ffnLL 20aa 20ccc# 20fffn	4rc
.	.	.	20ee 20eee	.
.	.	.	20cc# 20ccc#	.
.	.	.	20g#J 20cc# 20gg#	.
12F#X 12f#X	.	.	.	.
.	.	.	40r	.
.	.	.	40aJkk 40aa	.
*	*v	*v	*	*
=26	=26	=26	=26
4Fn 4A 4c#X 4fn	12rEE	4ccn 4ffn 4cccn	4rc
.	12FFnL 12F	.	.
.	12AAAJ 12AA	.	.
.	[8qAAA\ [8qAA	.	.
4F 4B-X 4d 4f	4AAA] 4AA]	6b-X 6bb-X	4b- 4dd
.	.	12fn 12ff	.
4F 4B- 4d 4f	4rEE	12aL 12aa	4b- 4dd
.	.	12g 12gg	.
.	.	24r	.
.	.	24dJk 24dd	.
=27	=27	=27	=27
4E 4A 4c# 4e	12rEE	4e 4a 4cc#X 4ee	4rc
.	12EEL 12E	.	.
.	12AAAJ 12AA	.	.
4E 4c#	4AA	4a 4aa	4rc
4c#	16D#XLL	20ffnLL	8a
.	.	20ee	.
.	16E	.	.
.	.	20cc#	.
.	16FnJ	.	8rc
.	.	20g#XJ	.
.	32r	.	.
.	.	40r	.
.	32EJkk	.	.
.	.	40aJkk	.
=28	=28	=28	=28
4E 4c#	12rEE	4cc#	4a
.	12EEL 12E	.	.
.	12AAAJ 12AA	.	.
4E 4c#	4AA	4ee	4a
4E 4A	4rEE	20ddLL	4e
.	.	20cc#	.
.	.	20b-X	.
.	.	20c#J	.
.	.	40r	.
.	.	40eJkk	.
=29	=29	=29	=29
4rc	12rEE	2a	2rc
.	12c#L	.	.
.	12EJ	.	.
4rc	12c#L	.	.
.	12E	.	.
.	12AAJ	.	.
8c#	12EL	20b-XLL	10.rc
.	.	20a	.
.	12A	.	.
.	.	20fn	.
8rc	.	.	.
.	.	20c#J	[10c#
.	12G#XJ	.	.
.	.	40r	.
.	.	[40eJkk	.
*v	*v	*	*
=30	=30	=30
12AAAL	4e] 4a	4c#]
12AA	.	.
12GnJ	.	.
12aL	8raa	4rc
12c#	.	.
.	8a	.
12GJ	.	.
12eL	6b	4rc
12G	.	.
12AAJ	12cc#	.
*	*v	*v
=31	=31
.	8qa/
*^	*
12DDL	6rEE	12eeL
12AA	.	12.dd
12GJ	[12G	.
.	.	24eeJk
12aL	6G]	6ee
12d	.	.
12F#J	12F#	12ff#
.	.	16qqf#/LL
.	.	16qqdd/JJ
12dL	4rEE	12ff#L
12F#	.	12gg
12AAJ	.	12aaJ
*v	*v	*
=32	=32
.	16qqf#/LL
.	16qqdd/
.	16qqdd/JJ
12DDL	6ccc#
12GG	.
12F#J	12bb
12bL	[4dd
12B	.
12F#J	.
12BL	6dd]
12E	.
12GGJ	12ff#
=33	=33
12DDL	12ff#L
12AA	12ee
12GJ	12ff#J
12b-XL	4b-X
12d	.
12GJ	.
12c#L	12ff#L
12G	12ee
12AAJ	12ff#J
=34	=34
12DDL	6bn
12AA	.
12F#J	12cc#
12aL	8eeL
12A	.
.	8ddJ
12F#J	.
12dL	8cc#L
12F#	.
.	8bJ
12AAJ	.
=35	=35
*	*^
*	*	*^
12DDL	12aL	4rc	4r
12D	12.dd	.	.
12AJ	.	.	.
.	24eeJk	.	.
12aL	6ee	4rc	12e\L
12d	.	.	12.d\
12AJ	12ff#	.	.
.	.	.	24e\Jk
12dL	12raa	4dd	6e/
12A	12ggL	.	.
12DJ	12aaJ	.	12f#/
=36	=36	=36	=36
12BBBL	6ddd	2.dd	6f#\
12BB	.	.	.
.	[8qccc#/	.	.
12AJ	12ccc#]	.	12a\
12aL	[4ff#	.	6dd\
12d	.	.	.
12AJ	.	.	12cc#\
12dL	6ff#]	.	4f#\
12A	.	.	.
12BBJ	12ccc#	.	.
=37	=37	=37	=37
12EEL	12ccc#L	2dd	12r
12E	12bb	.	12r
12dJ	12ccc#J	.	12cc#\
12aL	4ffn	.	12cc#\L
12d	.	.	12b\
12EJ	.	.	12cc#\J
.	.	16qqg#X\LL	.
.	.	16qqff\JJ	.
12g#XL	12ccc#L	6ff	4g#/
12d	12bb	.	.
12EJ	12ccc#J	12ee	.
=38	=38	=38	=38
12AAL	8ff#L	2ee	12cc#\L
12E	.	.	12b\
.	8gg#XJ	.	.
12eJ	.	.	12cc#\J
12cc#L	8bbL	.	8g#X/L
12e	.	.	.
.	8aaJ	.	8a/J
12c#J	.	.	.
12aL	8dd#XL	4rc	8f#/L
12c#	.	.	.
.	8eeJ	.	8e/J
12EJ	.	.	.
*	*v	*v	*v
=39	=39
.	8qe/
12EEL	6gn 6dd 6ggn
12E	.
12dJ	[12a#X
12gL	12a#]
12d	[6b
12EJ	.
12gL	12bL]
12c#	12ff#
12EJ	12eeJ
=40	=40
*^	*
12FF#L	4rEE	12eL 12g 12a#X 12dd
12E	.	12an
12A#XJ	.	24r
.	.	24a#XJk
4g	12gL	[4dd
.	12A#	.
.	12EJ	.
6f#	12f#L	12dd]
.	12A#	[6b-X [6dd [6bb-X
12e	12EJ	.
*v	*v	*
=41	=41
12GGL	6b-] 6dd] 6bb-]
12E	.
12B-XJ	[12cc#
12b-XL	12cc#]
12B-	[6dd
12EJ	.
12b-L	12ddL]
12d	12aa
12EJ	12ggJ
=42	=42
*^	*
*	*^	*
12AAL	4rEE	4r	12gL 12b-X 12cc# 12ff#
12G	.	.	12ccn
12c#J	.	.	24r
.	.	.	24cc#XJk
4b-X	4rEE	12b-\L	[4f# [4ff#
.	.	12c#\	.
.	.	12G\J	.
6a	4c#	12a\L	6f#] 6ff#]
.	.	12F#\	.
12g	.	12G\J	12e 12ee
*v	*v	*v	*
=43	=43
*	*^
12BB-XL	4e 4ee	2.g
12G	.	.
12c#J	.	.
12gL	[4c# [4cc#	.
12e	.	.
12GJ	.	.
12gL	12c#] 12cc#]	.
12d	6d 6dd	.
12GJ	.	.
=44	=44	=44
12BB-XL	4d 4dd	2.g#X
12Fn	.	.
12dJ	.	.
12c#L	4e 4ee	.
12E	.	.
12BB-J	.	.
12BB-L	4e#X 4ee#X	.
12D	.	.
12dJ	.	.
=45	=45	=45
12AAL	4.e#X 4.a 4.ee#X	2dd
12D	.	.
12dJ	.	.
12aL	.	.
12d	.	.
.	8f# 8ff#	.
12F#J	.	.
12g#XL	8cc#L 8ccc#	4dd
12d	.	.
.	8bJ 8bb	.
12FnJ	.	.
*	*v	*v
=46	=46
12AAL	8aL 8dd 8aa
12E	.
.	8aJ
12dJ	.
12aL	4.f# 4.ff#
12d	.
12GJ	.
12aL	.
12c#	.
.	8e 8ee
12GJ	.
=47	=47
12CCnL 12Cn	4e 4a 4ee
12F#	.
12c#XJ	.
12aL	[4c# [4cc#
12e	.
12F#J	.
12aL	12c#] 12cc#]
12d	6d 6dd
12F#J	.
=48	=48
*^	*
12AL 12d 12a	12rEE	2f# 2ff#
12A 12f# 12a	12CCnL 12Cn	.
12AJ 12f# 12a	12CCJ 12C	.
12AL 12f# 12a	12CCL 12C	.
12A 12f# 12a	12CC#X 12C#X	.
[12AJ [12f# [12a	12CC#J 12C#	.
12AL] 12f#] 12a]	12CC#L 12C#	4e 4ee
12A 12f# 12a	12CCn 12Cn	.
12AJ 12f# 12a	12CCJ 12C	.
*v	*v	*
=49	=49
12BBBnL 12BBn	6e 6g 6cc# 6ee
12G	.
12eJ	[12c# [12cc#
12gL	12c#] 12cc#]
12d	[6d [6dd
12GJ	.
12gL	12d] 12dd]
12dn	6d#X 6dd#X
12GJ	.
=50	=50
*	*^
12BBB-XL 12BB-X	6f# 6g#X 6ff#	2ddn
12G#X	.	.
12dnJ	[12d#X [12dd#X	.
12g#XL	12d#] 12dd#]	.
12d	6e 6ee	.
12EJ	.	.
12g#L	6ddn 6dddn	12rc
12d	.	12eeL 12gg#X
12EJ 12d 12g#	12dd 12ddd	12eeJ 12gg#
=51	=51	=51
12AAAL	4dd 4ddd	12rc
12E#X 12B 12g#X	.	12ee#XL 12gg#X
12E#J 12B 12g#	.	12ee#J 12gg#
12E#L 12c# 12g#	[4cc# [4ccc#	12ee#L 12gg#
12E# 12c# 12g#	.	12ee# 12gg#
12E#J 12c# 12g#	.	12ee#J 12gg#
12E#L 12d 12g#	12cc#L] 12ccc#]	12ee#L 12gg#
12E# 12d	12gn 12ggn	12cc# 12ee#
12E#J 12d	12g#XJ 12gg#X	12bJ 12ee#
=52	=52	=52
.	.	[8qg#X\
12AAAL 12AA	6b 6bb	12g#L] 12dd 12ff#
12F# 12d	.	12a 12dd 12ff#
12F#J 12d	12b-X 12bb-X	12b-J 12dd 12ff#
12GnL 12d	[4e#X [4ee#X	12b-L 12dd
12G 12d	.	12b- 12dd
12GJ 12d	.	12b-J 12dd
12GL 12d	6e#] 6ee#]	12b-L 12dd
12G 12d	.	12b- 12dd
12F#J 12d	12f# 12ff#	12aJ 12dd
=53	=53	=53
12AAAL 12AA	[4a [4aa	12rc
12F# 12cn 12d#X	.	12ccnL 12dd#X
12F#J 12c 12d#	.	12ccJ 12dd#
12F#L 12c 12d#	12a] 12aa]	12ccL 12dd#
12G 12c 12d#	[6g [6gg	12cc 12dd#
12GJ 12c 12d#	.	12ccJ 12dd#
12GL 12c 12d#	6g] 6gg]	12ccL 12dd#
12G 12c 12d#	.	12cc 12dd#
12AJ 12c 12d#	12d#X 12dd#	12ccJ 12dd#
=54	=54	=54
12AAAL 12AA	2f# 2ff#	12bL 12dd#X
12G 12B 12d#X	.	12b 12dd#
12GJ 12B 12d#	.	12bJ 12dd#
12GL 12B 12d#	.	12bL 12dd#
12G 12B 12d#	.	12b 12dd#
12GJ 12B 12d#	.	12bJ 12dd#
12GL 12cn 12e	6e 6ee	12ccnL
12G 12c#X 12e	.	12cc#X
12GJ 12dn 12e#X	12dn 12ddn	12aJ 12dd
*	*v	*v
=55	=55
*^	*
.	[8qDD\ [8qD	.
4F# 4d 4f#	12DDL] 12D]	4d 4a 4dd
.	12.AAA 12.AA	.
.	24FFF#Jk 24FF#	.
4rc	4.FFF# 4.FF#	4A 4d 4a
4rc	.	4A#X 4d 4an 4a#X
.	8FFF# 8FF#	.
=56	=56	=56
*	*	*^
2.ryy	12FFF#L 12FF#	4B 4d 4g#X 4b	4rc
.	12EEE#X 12EE#X	.	.
.	24r	.	.
.	24DDJk 24D	.	.
.	4DD 4D	[4cn 4e#X 4g# [4ccn	4rc
.	4EEE# 4EE#	12cL] 12cc]	4d 4g#
.	.	12B 12b	.
.	.	12B-XJ 12b-X	.
*	*	*v	*v
=57	=57	=57
2.ryy	4FFF# 4FF#	12AL 12d 12a
.	.	12d 12dd
.	.	24r
.	.	24f#Jk 24a 24dd 24ff#
.	16GGGLL 16GG	4f# 4b-X 4dd 4ff#
.	16F#JJ 16B-X 16d	.
.	8r	.
.	16EnLL 16B- 16d	4en 4b- 4dd 4een
.	16GGG#XJJ 16GG#X	.
.	8r	.
=58	=58	=58
2.ryy	16AAALL 16AA	24ddLL 24ee
.	.	24a
.	16GnJJ 16d	.
.	.	24e
.	8r	24A
.	.	[24e
.	.	24eJJ_ [24a
.	8r	8e] 8a] 8ee
.	4AA 4G 4A	4Bn 4d 4a 4bn
.	8AA 8G 8A	8c# 8e 8a 8cc#
=59	=59	=59
.	[8qDD\ [8qD	.
4F# 4A	12DDL] 12D]	4d 4f# 4a 4dd
.	12.AAA 12.AA	.
.	24FFF#Jk 24FF#	.
4rc	4.FFF# 4.FF#	4A 4d 4a
4rc	.	4A#X 4d 4an 4a#X
.	8FFF# 8FF#	.
=60	=60	=60
*	*	*^
2.ryy	12FFF#L 12FF#	4B 4d 4g#X 4b	4rc
.	12EEE#X 12EE#X	.	.
.	24r	.	.
.	24DDJk 24D	.	.
.	4DD 4D	[4cn 4e#X 4g# [4ccn	4rc
.	4EEE# 4EE#	12cL] 12cc]	4d 4g#
.	.	12B 12b	.
.	.	12B-XJ 12b-X	.
*	*	*v	*v
=61	=61	=61
2.ryy	12FF#L 12F#	4A 4d 4a
.	12.DD 12.D	.
.	24AAAJk 24AA	.
.	4.AAA 4.AA	4c# 4f# 4a 4cc#
.	.	4d 4f# 4a 4dd
.	8AAA 8AA	.
=62	=62	=62
*	*	*^
2.ryy	12AAAL 12AA	4d#X 4g 4cc# 4dd#X	4rc
.	12BBB-X 12BB-X	.	.
.	24r	.	.
.	24GGJk 24G	.	.
.	4GG 4G	4e 4b-X 4cc# 4ee	4rc
.	4BBB- 4BB-	12fnL 12ffn	4g 4cc#
.	.	12e 12ee	.
.	.	12e-XJ 12ee-X	.
*	*	*v	*v
=63	=63	=63
2.ryy	12AAL 12A	4d 4f# 4dd
.	12.FF# 12.F#	.
.	24DDJk 24D	.
.	4.DD 4.D	4e#X 4a 4dd 4ee#X
.	.	4f# 4a 4dd 4ff#
.	8DD 8D	.
=64	=64	=64
*	*	*^
2.ryy	12DDL 12D	4f# 4a 4cc# 4ff#	4rc
.	12EE-X 12E-X	.	.
.	24r	.	.
.	24C#Jk 24c#	.	.
.	4C# 4c#	4g 4a 4cc# 4gg	4rc
.	8EE-L 8E-	12aL 12aa	4cc#
.	.	12g#X 12gg#X	.
.	8AJ 8c# 8a	.	.
.	.	12gnJ 12ggn	.
=65	=65	=65	=65
2.ryy	12A-XL 12cn 12a-X	4f# 4ff#	4ccn
.	12EE-X 12E-X	.	.
.	12DDJ 12D	.	.
.	8DD-XL 8D-X	12gL 12gg	4b
.	.	12f# 12ff#	.
.	8GJ 8B 8g	.	.
.	.	12fnJ 12ffn	.
.	12G-XL 12B-X 12g-X	4e 4ee	4b-X
.	12DD- 12D-	.	.
.	12CCnJ 12Cn	.	.
=66	=66	=66	=66
4rc	8CC-XL 8C-X	12fnL 12ffn	4a
.	.	12e 12ee	.
.	8FnJ 8A 8fn	.	.
.	.	12e-XJ 12ee-X	.
4rc	12EL 12G#X 12e	[4d [4dd	4g#X
.	12CCn 12Cn	.	.
.	12BBBJ 12BB	.	.
4G#	12FnL 12fn	12dL] 12dd]	4g#
.	12E 12e	12en 12een	.
.	24DL 24d	12e#XJ 12ee#X	.
.	24BBB-XJJ 24BB-X	.	.
*	*	*v	*v
=67	=67	=67
2.ryy	12FF#XL 12F#X	12AL 12d 12a
.	12DD 12D	12d 12dd
.	12AAAJ 12AA	24r
.	.	24f#Jk 24a 24dd 24ff#
.	16GGGLL 16GG	4f# 4b-X 4dd 4ff#
.	16F#JJ 16B-X 16d	.
.	8r	.
.	16ELL 16B- 16d	4en 4b- 4dd 4een
.	16GGG#XJJ 16GG#X	.
.	8r	.
=68	=68	=68
2.ryy	16AAALL 16AA	24ddLL 24ee
.	.	24a
.	16GnJJ 16d	.
.	.	24e
.	8r	24A
.	.	[24e
.	.	24eJJ_ [24a
.	8r	8e] 8a] 8ee
.	4AA 4G 4A	4Bn 4d 4a 4bn
.	8AA 8G 8A	8c# 8e 8a 8cc#
=69	=69	=69
.	[8qDD\ [8qAA [8qD	.
2F# 2A	2DD] 2AA] 2D]	12dL 12f# 12a 12dd
.	.	12.A 12.a
.	.	24F#Jk 24f#
.	.	4F# 4A 4d 4f#
4rc	4AAA 4AA	4r
=70	=70	=70
2.ryy	2DD 2AA 2D	12dL 12f# 12a 12dd
.	.	12.A 12.a
.	.	24F#Jk 24f#
.	.	4F# 4A 4d 4f#
.	4AAA 4AA	4r
=71	=71	=71
2.ryy	2DD 2AA 2D	12dL 12fn 12a 12dd
.	.	12.A 12.a
.	.	24FnJk 24f
.	.	4F 4A 4d 4f
.	4AAA 4AA	4r
=72	=72	=72
2.ryy	2DD 2AA 2D	12fnL 12a 12dd 12ffn
.	.	12.d 12.dd
.	.	24AJk 24a
.	.	4A 4d 4f 4a
.	4AAA 4AA	4r
*v	*v	*
=73||	=73||
*k[]	*k[]
*^	*
16BBB-XLL 16BB-X	4BBB- 4BB-	12aL 12dd 12ff 12aa
16FJJ 16d	.	.
.	.	12.f 12.ff
8rc	.	.
.	.	24dJk 24dd
4AA 4A	4rEE	4d 4f 4dd
20GG#XLL 20G#X	4rEE	8.r
20FF 20F	.	.
20DD 20D	.	.
20AAA 20AA	.	.
.	.	16a 16aa
20BBB-JJ 20BB-	.	.
=74	=74	=74
*	*	*^
24BBBnLL	4rEE	12eeL 12eee	2.aa
24BBn	.	.	.
24F	.	12.dd 12.ddd	.
24AJ	.	.	.
12aJ	.	.	.
.	.	24eeJk 24eee	.
12c#XL 12cc#X	4a	[4ee [4eee	.
12.B 12.b	.	.	.
24c#Jk 24cc#	.	.	.
6c# 6cc#	4a	12ee] 12eee]	.
.	.	6ff 6fff	.
12d 12dd	.	.	.
*	*	*v	*v
=75	=75	=75
16CCLL 16C	4CC 4C	12aaL 12ccc 12fff 12aaa
16AJJ 16c 16f 16a	.	.
.	.	12.ff 12.fff
8rc	.	.
.	.	24ccJk 24ccc
4AA 4A	4rEE	4cc 4ff 4ccc
24GGLL 24G	4rEE	4r
24FF 24F	.	.
24CC 24C	.	.
24AAA 24AA	.	.
24BBB-X 24BB-X	.	.
24BBBnJJ 24BBn	.	.
*v	*v	*
=76	=76
*	*^
12FFL 12F	12ddL 12ddd	4ff 4bb-X
12CC 12C	12.cc 12.ccc	.
12B-XJ 12f 12b-X	.	.
.	24ddJk 24ddd	.
12GG-XL 12G-X	6dd 6ddd	4gg-X 4bb-
12CC 12C	.	.
12B-J 12e-X 12g-X 12b-	[12ee-X [12eee-X	.
12GGnL 12Gn	12ee-] 12eee-]	4ggn 4bb- 4ccc
12CC 12C	6een 6eeen	.
12B-J 12en 12gn 12b-	.	.
*	*v	*v
=77	=77
*^	*
16FFFLL 16FF	4FFF 4FF	12eeL 12aa 12ccc 12eee
16AJJ 16e 16a	.	.
.	.	12.cc 12.ccc
8rc	.	.
.	.	24aJk 24aa
4EE 4E	4rEE	4a 4cc 4aa
20DD#XLL 20D#X	4rEE	8.r
20CC 20C	.	.
20AAA 20AA	.	.
20EEE 20EE	.	.
.	.	16e 16ee
20FFFJJ 20FF	.	.
*v	*v	*
=78	=78
*	*^
24FFF#XLL	12bL 12bb	4cc 4ee
24FF#X	.	.
24E	12.a 12.aa	.
24AJ	.	.
12cJ 12e	.	.
.	24bJk 24bb	.
24GGGLL	6b 6bb	4ee 4gg
24GG	.	.
24E	.	.
24GJ	.	.
12cJ 12g	12cc 12ccc	.
24GGGLL	12cc#XL 12ccc#X	4ffn 4bb
24GG	.	.
24Fn	12dd 12ddd	.
24GJ	.	.
12BJ 12g	12dd#XJ 12ddd#X	.
*	*v	*v
=79	=79
*^	*
16CCCLL 16CC	4CCC 4CC	12eeL 12bb 12eee
16EJJ 16G 16B 16e	.	.
.	.	12.b 12.bb
8rc	.	.
.	.	24gJk 24gg
4BB 4B	4rEE	4g 4ee 4gg
20AA#XLL 20A#X	4rEE	4r
20GG 20G	.	.
20EE 20E	.	.
20BBB 20BB	.	.
20CCJJ 20C	.	.
=80	=80	=80
16CC#XLL 16C#X	4CC# 4C#	12bL 12ee 12gg 12bb
16GJJ 16B 16e	.	.
.	.	12g 12gg
8rc	.	.
.	.	24r
.	.	24eJk 24ee
4BB 4B	4rEE	4e 4g 4ee
20AA#XLL 20A#X	4rEE	4r
20GG 20G	.	.
20EE 20E	.	.
20CCn 20Cn	.	.
20CC#XJJ 20C#X	.	.
=81	=81	=81
12DDL 12D	4rEE	12d 12f#X 12b 12dd
*clefG2	*	*
12B 12f#X 12b	.	12r
12BJ 12f# 12b	.	12r
12eL 12ee	4g	4bb 4ggg 4bbb
12e-X 12ee-X	.	.
12dJ 12dd	.	.
8b 8dd 8bb	4rc	24aaLL 24ddd 24aaa
.	.	24gg 24ggg
.	.	24dd 24ddd
8raa	.	24b 24bb
.	.	24cc 24ccc
.	.	24cc#XJJ 24ccc#X
*v	*v	*
=82	=82
*clefF4	*
*	*^
12DDL 12D	12raa	4dd 4ddd
*clefG2	*	*
12c 12f#X 12b	12ff#XL 12bb	.
12cJ 12f# 12b	12ff#J 12bb	.
12cL 12f# 12b-X	12ff#L 12bb-X	4ee 4eee
12c 12f# 12a	12ff# 12aa	.
12cJ 12f# 12g#X	12ff#J 12gg#X	.
*clefF4	*	*
12DL 12c 12f#X 12a	12ff#L	6a 6aa
12c 12d 12f#	12dd 12ff#	.
12cJ 12d 12f#	12ddJ 12ff#	12a#X 12aa#X
=83	=83	=83
*^	*	*
12DDL 12D	4rEE	12ddL 12ff#X	4b 4bb
*clefG2	*	*	*
12B 12d 12f#X 12b	.	12dd 12ff#	.
12BJ 12d 12f# 12b	.	12ff#J 12bb	.
12eL 12ee	4g	12raa	4bb 4bbb
12e-X 12ee-X	.	12ggL 12bb	.
12dJ 12dd	.	12ggJ 12bb	.
12b 12dd 12bb	4rc	12bbL 12ddd	24aaLL 24aaa
.	.	.	24gg 24ggg
12raa	.	12gg 12bb	24dd 24ddd
.	.	.	24b 24bb
12raa	.	12ggJ 12bb	24cc 24ccc
.	.	.	24cc#XJJ 24ccc#X
*v	*v	*	*
=84	=84	=84
*clefF4	*	*
12DDL 12D	12raa	4dd 4ddd
*clefG2	*	*
12c 12f#X 12b	12ff#XL 12bb	.
12cJ 12f# 12b	12ff#J 12bb	.
12cL 12f# 12b-X	12ff#L 12bb-X	4ee 4eee
12c 12f# 12a	12ff# 12aa	.
12cJ 12f# 12g#X	12ff#J 12gg#X	.
*clefF4	*	*
12DL 12c 12f#X 12a	12ff#L	6a 6aa
12c 12d 12f#	12dd 12ff#	.
12cJ 12d 12f#	12ddJ 12ff#	12a#X 12aa#X
=85	=85	=85
*^	*	*
12GGGL 12GG	4rEE	2b 2bb	12ff#XL 12bb
12.C#X 12.c#X	.	.	12ff# 12bb
.	.	.	12ff#J 12bb
24BJk 24f#X 24b	.	.	.
4.B 4.b	4f#	.	12ff#L 12bb
.	.	.	12ff# 12bb
.	.	.	12ff#J 12bb
.	8e#X	[4cc#X [4ccc#X	12ee#XL 12bb
.	.	.	12ee# 12bb
8C# 8c#	8rEE	.	.
.	.	.	12ee#J 12bb
=86	=86	=86	=86
12FFF#XL 12FF#X	4rEE	12cc#L] 12ccc#]	12eenL 12aa
12.BB 12.B	.	12.b 12.bb	12ee 12aa
.	.	.	12eeJ 12aa
24AJk 24e 24a	.	24cc#XJk 24ccc#X	.
4.A 4.a	4e	4cc# 4ccc#	12eeL 12aa
.	.	.	12ee 12aa
.	.	.	12eeJ 12aa
.	8d	4dd 4ddd	12aaL
.	.	.	12dd 12aa
8BB 8B	8rEE	.	.
.	.	.	12ddJ 12aa
*v	*v	*	*
=87	=87	=87
12EEEL 12EE	2dd 2ddd	12aaL 12bb
12.BB 12.B	.	12aa 12bb
.	.	12aaJ 12bb
24AJk 24B 24a	.	.
4A 4B 4a	.	12aaL 12bb
.	.	12aa 12bb
.	.	12aaJ 12bb
8GL 8B 8g	4ee 4eee	12ggL 12bb
.	.	12gg 12bb
8BBJ 8B	.	.
.	.	12ggJ 12bb
=88	=88	=88
12DDDL 12DD	2.ff#X 2.fff#X	12ff#L 12bb
12.GG 12.G	.	12ff# 12bb
.	.	12ff#J 12bb
24F#XJk 24B 24f#X	.	.
4F# 4B 4f#	.	12ff#L 12bb
.	.	12ff# 12bb
.	.	12ff#J 12bb
4GG 4G	.	12ff#L 12bb
.	.	12ff# 12bb
.	.	12ff#J 12bb
=89	=89	=89
12CCC#XL 12CC#X	2gg 2ggg	12bbL
12.GG 12.G	.	12ee#X 12bb 12eee#X
.	.	12ee#J 12bb 12eee#
24E#XJk 24B 24e#X	.	.
4E# 4B 4e#	.	12ee#L 12bb 12eee#
.	.	12ee# 12bb 12ccc#X
.	.	12ee#J 12bb 12ccc#
4GG 4G	4raa	12ee#L 12bb 12ccc#
.	.	12cc#X 12ee# 12bb
.	.	12cc#J 12ee# 12bb
=90	=90	=90
12CCC#XL 12CC#X	2.ryy	12cc#XL 12ee#X 12bb
12.GG 12.G	.	12b 12ee# 12gg
.	.	12bJ 12ee# 12gg
24E#XJk 24B 24e#X	.	.
4E# 4B 4e#	.	12bL 12ee# 12gg
.	.	12g 12b 12ee#
.	.	12gJ 12b 12ee#
4GG 4G	.	12gL 12b 12ee#
.	.	12e#X 12b 12cc#
.	.	12c#XJ 12e# 12b
=91	=91	=91
16E#XLL	2.ryy	12BL 12c#X 12g
16BB	.	.
.	.	12E#X 12B 12c#
16CC#X	.	.
.	.	12E#J 12B 12c#
16CC#JJ	.	.
16CCC#XLL	.	12E#L 12B 12c#
16CC#	.	.
.	.	12B 12c# 12g
16CC#	.	.
.	.	12BJ 12c# 12g
16BBJJ	.	.
16F#XLL	.	12BL 12c# 12f#X
16BB	.	.
.	.	12F#X 12B 12c#
16CC#	.	.
.	.	12F#J 12B 12c#
16CC#JJ	.	.
=92	=92	=92
16CCC#XLL	2.ryy	12F#XL 12B 12c#X
16CC#X	.	.
.	.	12B 12c# 12f#X
16CC#	.	.
.	.	12BJ 12c# 12f#
16BBJJ	.	.
16GLL	.	12BL 12c# 12f#
16BB	.	.
.	.	12G 12B 12c#
16CC#	.	.
.	.	12GJ 12B 12c#
16CC#JJ	.	.
16CCC#LL	.	12GL 12B 12c#
16CC#	.	.
.	.	12B 12c# 12e
16CC#	.	.
.	.	12BJ 12c# 12e
16BBJJ	.	.
*	*v	*v
=93||	=93||
*k[f#c#]	*k[f#c#]
*	*^
36F#LL	4F# 4f#	12A#XL 12c#
36C#	.	.
36FF#	.	.
36FF#	.	12A# 12c#
36FFF#	.	.
36FF#	.	.
36FF#	.	12A#J 12c#
36C#	.	.
36F#JJ	.	.
4r	[4G [4g	12A#L 12c#
.	.	12A# 12c#
.	.	12A#J 12c#
4r	12GL] 12g]	12A#L 12c#
.	12.F# 12.f#	12A# 12c#
.	.	12A#J 12c#
.	24F#Jk 24f#	.
=94	=94	=94
20F#LL	24c#LL 24f#	4rc
.	24F#	.
20C#	.	.
.	24A#X	.
20FF#	.	.
.	24c# 24f#	.
20EE	.	.
.	24f#	.
20EEJJ	.	.
.	24a#XJJ	.
20EEELL	24cc#LL 24ff#	4rc
.	24a#	.
20EE	.	.
.	24f#	.
20EE	.	.
.	24f#	.
20FF#	.	.
.	24a#	.
20C#JJ	.	.
.	24c#JJ	.
8F#	24f#LL	4f#
.	24A#	.
.	24F#	.
8r	24A#	.
.	24c#	.
.	24F#JJ	.
=95	=95	=95
36F#LL	4F# 4f#	12G#XL 12B
36BB	.	.
36FF#	.	.
36DD	.	12G# 12B
36DD	.	.
36DDD	.	.
48DDL	.	[12G#J 12B
48DD	.	.
48FF#	.	.
48BBJJJ	.	.
8F#	4f#X 4g [4b	12G#L] 12B
.	.	12G# 12B
8r	.	.
.	.	12G#J 12B
4r	12BL 12b]	12G#L 12B
.	12.F# 12.f#	12G# 12B
.	.	12G#J 12B
.	24F#Jk 24f#	.
=96	=96	=96
16F#LL	24eLL 24f#	4rc
.	24F#	.
16E	.	.
.	24A#X	.
16FF#	24e 24f#	.
.	24f#	.
16CC#JJ	.	.
.	24a#XJJ	.
16CCC#LL	24eeLL 24ff#	4rc
.	24a#	.
16CC#	.	.
.	24f#	.
16FF#	24f#	.
.	24a#	.
16EJJ	.	.
.	24eJJ	.
8F#	12f#L	24eLL
.	.	24A#
.	12E#X 12e#X	24en
8r	.	24A#
.	12F#J 12f#	24en
.	.	24A#JJ
=97	=97	=97
48F#LLL	4G 4g	12BL 12d 12f#
48D	.	.
48FF#	.	.
48BBBJ	.	.
36BBBB	.	12B 12d 12f#
36BBB	.	.
36FF#	.	.
48DL	.	12BJ 12d 12f#
48F#	.	.
[48G	.	.
48GJJJ_ [48d	.	.
4G] 4d] 4g	4f# 4ff#	12f#L 12b 12dd
.	.	12f# 12b 12dd
.	.	12f#J 12b 12dd
48DLLL 48d	24e#XLL 24ee#X	8b
48C# 48c#	.	.
48BBJJJ 48B	24d 24dd	.
16r	.	.
.	24B 24b	.
8r	16F# 16f#	8rc
.	16GJJ 16g	.
=98	=98	=98
48F#LLL	4G#X 4g#X	12BL 12d 12f#
48D	.	.
48FF#	.	.
48BBBJ	.	.
36BBBB	.	12B 12d 12f#
36BBB	.	.
36FF#	.	.
48DL	.	12BJ 12d 12f#
48F#	.	.
[48G#X	.	.
48G#JJJ_ [48d	.	.
4G#] 4d] 4g#X	4.f# 4.ff#	12f#L 12b 12dd
.	.	12f# 12b 12dd
.	.	12f#J 12b 12dd
48DLLL 48d	.	12f#L 12b 12dd
48C# 48c#	.	.
48BBJJJ 48B	.	.
16r	.	.
.	.	12B 12d 12f#
8r	8G##X 8g##X	.
.	.	12BJ 12d 12f#
=99	=99	=99
*	*	*^
36F#LL	6G##X 6g##X	12c#L 12f#	6B/
36C#	.	.	.
36FF#	.	.	.
36FF#	.	12c# 12f#	.
36FFF#	.	.	.
36FF#	.	.	.
36FF#	12A#X 12a#X	12c#J 12f#	12A#/
36C#	.	.	.
36F#JJ	.	.	.
16A#XLL	24a#LL 24dd	4rc	4r
.	24d	.	.
16BB#X	.	.	.
.	24f#	.	.
16FF#	24a# 24dd	.	.
.	24dd	.	.
16FF#JJ	.	.	.
.	24ff#JJ	.	.
16FFF#LL	24aa#XLL 24ddd	4rc	4r
.	24ff#	.	.
16FF#	.	.	.
.	24dd	.	.
16FF#	24a#	.	.
.	24cc#	.	.
16C#JJ	.	.	.
.	24c#JJ	.	.
*	*	*v	*v
=100	=100	=100
*^	*	*
16A#XLL	4rEE	24a#XLL 24cc#	4rc
.	.	24c#	.
16C#	.	.	.
.	.	24f#	.
16FF#	.	24a# 24cc#	.
.	.	24cc#	.
16FF#JJ	.	.	.
.	.	24ff#JJ	.
16FFF#LL	4rEE	24aa#XLL 24ccc#	4rc
.	.	24ff#	.
16FF#	.	.	.
.	.	24a#	.
16FF#	.	24cc#	.
.	.	24ff#	.
16C#JJ	.	.	.
.	.	24f#JJ	.
4A#	12C#L	12cc#L	24a#LL
.	.	.	24f#
.	12BB#X	12B#X 12b#X	24a#
.	.	.	24f#
.	12C#J	12c#J 12cc#	24a#
.	.	.	24f#JJ
*v	*v	*	*
=101	=101	=101
16B-XLL	24b-XLL 24dd	4rc
.	24d	.
16D	.	.
.	24f#	.
16FF#	24b- 24dd	.
.	24dd	.
16FF#JJ	.	.
.	24ff#JJ	.
16FFF#LL	24bb-XLL 24ddd	4rc
.	24ff#	.
16FF#	.	.
.	24b-	.
16FF#	24dd	.
.	24ff#	.
16DJJ	.	.
.	24f#JJ	.
16B-LL	12raa	24b-LL
.	.	24f#
16D	.	.
.	12.ddL	24b-
16FF#	.	24f#
.	.	24d
16DJJ	.	.
.	24ddJk	24b-JJ
=102	=102	=102
*^	*	*
16B-XLL	4rEE	24b-XLL 24dd	4rc
.	.	24d	.
16D	.	.	.
.	.	24g	.
16GG	.	24b- 24dd	.
.	.	24dd	.
16GGJJ	.	.	.
.	.	24ggJJ	.
16GGGLL	4rEE	24bb-XLL 24ddd	4rc
.	.	24gg	.
16GG	.	.	.
.	.	24b-	.
16GG	.	24dd	.
.	.	24gg	.
16DJJ	.	.	.
.	.	24gJJ	.
4B-	12DL	12ddL	24b-LL
.	.	.	24g
.	12C#	12c# 12cc#	24b-
.	.	.	24g
.	12DJ	12dJ 12dd	24b-
.	.	.	24gJJ
*v	*v	*	*
*	*v	*v
=103	=103
16BLL	24bLL 24dd#X
.	24d#X
16D#X	.
.	24f##X
16FF##X	24b 24dd#
.	24dd#
16FF##JJ	.
.	24ff##XJJ
16FFF##XLL	24bbLL 24ddd#X
.	24ff##
16FF##	.
.	24b
16FF##	24dd#
.	24ff##
16D#JJ	.
.	24f##JJ
16BLL	24bLL 24dd#
.	24f##
16D#	.
.	24d#
16FF##	24f##
.	24b 24dd#
16D#JJ	.
.	24f##JJ
=104	=104
16BLL	24bLL 24dd#X
.	24d#X
16D#X	.
.	24g#X
16GG#X	24b 24dd#
.	24dd#
16GG#JJ	.
.	24gg#XJJ
16GGG#XLL	24bbLL 24ddd#X
.	24gg#
16GG#	.
.	24b
16GG#	24dd#
.	24gg#
16D#JJ	.
.	24g#JJ
16BLL	24bLL 24dd#
.	24g#
16D#	.
.	24d#
16GG#	24g#
.	24b 24dd#
16D#JJ	.
.	24g#JJ
=105	=105
20BLL	24cc#LL 24ee
.	24e
20E	.
.	24b
20C#	.
.	24cc# 24ee
20GG#X	.
.	24ee
20GG#JJ	.
.	24bbJJ
20GGG#XLL	24ccc#LL 24eee
.	24bb
20GG#	.
.	24cc#
20GG#	.
.	24ee
20C#	.
.	24bb
20EJJ	.
.	24bJJ
16BLL	24cc#LL 24ee
.	24b
16C#	.
.	24e
16GG#	24b
.	24cc# 24ee
16C#JJ	.
.	24bJJ
=106	=106
20BLL	24cc#LL 24ee#X
.	24e#X
20E#X	.
.	24b
20C#	.
.	24cc# 24ee#
20GGn	.
.	24ee#
20GGJJ	.
.	24bbJJ
20GGGnLL	24ccc#LL 24eee#X
.	24bb
20GG	.
.	24cc#
20GG	.
.	24ee#
20C#	.
.	24bb
20E#JJ	.
.	24bJJ
16BLL	24cc#LL 24ee#
.	24b
16C#	.
.	24e#
16GG	24b
.	24cc# 24ee#
16C#JJ	.
.	24bJJ
=107	=107
12EnL 12F# 12B 12en	24cc#LL 24ff#
.	24f#
12.CC# 12.C#	24b
.	24cc# 24ff#
.	24ff#
24FFF#Jk 24FF#	24bbJJ
4FFF# 4FF#	24ccc#LL 24fff#
.	24bb
.	24cc#
.	24ff#
.	24bb
.	24bJJ
4E 4F# 4B 4e	24cc#LL 24ff#
.	24b
.	24f#
.	24b
.	24cc# 24ff#
.	24bJJ
=108	=108
*	*^
12EL 12F# 12A#X 12e	24cc#LL 24ff#	4rc
.	24f#	.
12.CC# 12.C#	24a#X	.
.	24cc# 24ff#	.
.	24ff#	.
24FFF#Jk 24FF#	24aa#XJJ	.
12FFF#L 12FF#	12raa	12ccc#L 12fff#
12E 12F# 12A# 12e	12raa	12a# 12cc#
12EJ 12F# 12A# 12e	12f# 12ff#	12a#J 12cc#
12EL 12F# 12c# 12e	6g#X 6gg#X	12cc#L 12ff#
12FF# 12F#	.	12cc# 12ff#
12FFF#J 12FF#	12a#X 12aa#X	12cc#J 12ff#
*	*v	*v
=109||	=109||
*k[f#c#g#d#a#]	*k[f#c#g#d#a#]
*	*^
12BBBBL 12BBB	12cc#L 12ccc#	12dd#L 12ff#
12FF# 12F#	12.b 12.bb	12dd# 12ff#
12F#J 12B 12f#	.	12dd#J 12ff#
.	24cc#Jk 24ccc#	.
12EL 12F# 12B 12e	6cc# 6ccc#	12ff#L 12bb
12FF# 12F#	.	12ff# 12bb
12D#J 12F# 12B 12d#	12dd# 12ddd#	12ff#J 12bb
12A#L 12B 12d# 12a#	12dd#L 12ddd#	12bbL 12ddd#
12G# 12B 12c# 12g#	12ee 12eee	12bb 12ccc#
12F#J 12B 12d# 12f#	12ff#J 12fff#	12bbJ 12ddd#
=110	=110	=110
12BBBBL 12BBB	6aa# 6aaa#	12bbL 12ddd#
12EE 12E	.	12bb 12ddd#
12D#J 12G# 12B 12d#	12gg# 12ggg#	12bbJ 12ddd#
12G#L 12B 12d# 12g#	[4b [4bb	12dd#L 12gg#
12D# 12G# 12B 12d#	.	12dd# 12gg#
12G#J 12B 12d# 12g#	.	12dd#J 12gg#
12G#L 12B 12c# 12g#	6b] 6bb]	12cc#L 12gg#
12C# 12G# 12B 12c#	.	12cc# 12gg#
12EEJ 12E	12dd# 12ddd#	12gg#J 12bb
=111	=111	=111
12BBBBL 12BBB	12dd#L 12ddd#	12ggnL 12bb
12FF# 12F#	12cc# 12ccc#	12gg 12bb
12EJ 12Gn 12B 12e	12dd#J 12ddd#	12ggJ 12bb
12BL 12e 12gn 12b	4gn 4gg	12bL 12ee
12E 12G 12B 12e	.	12b 12ee
12FF#J 12F#	.	12bJ 12ee
12A#L 12e 12f# 12a#	12dd#L 12ddd#	12ff#L 12aa#
12E 12F# 12A# 12e	12cc# 12ccc#	12ff# 12aa#
12FF#J 12F#	12dd#J 12ddd#	12ff#J 12aa#
=112	=112	=112
12BBBBL 12BBB	8g#L 8gg#	12dd#L 12ff#
12FF# 12F#	.	12dd# 12ff#
.	8a#J 8aa#	.
12D#J 12F# 12d#	.	12dd#J 12ff#
*clefG2	*	*
12d#L 12f# 12dd#	8cc#L 8ccc#	12dd#L 12ff#
*clefF4	*	*
12F# 12d# 12f#	.	12dd# 12ff#
.	8bJ 8bb	.
12D#J 12F# 12d#	.	12dd#J 12ff#
12BL 12f# 12b	8a#L 8aa#	12dd#L
12D# 12B 12d#	.	12b 12dd#
.	8g#J 8gg#	.
12FF#J 12F#	.	12bJ 12dd#
=113	=113	=113
*^	*	*
4rc	12BBBL 12BB	12f#L 12ff#	12bL 12dd#
.	12F# 12B 12f#	12.b 12.bb	12dd# 12ff#
.	12F#J 12B 12f#	.	12dd#J 12ff#
.	.	24cc#Jk 24ccc#	.
12C#L 12c#	12F#L 12B	6cc# 6ccc#	12ff#L 12bb
12.BB 12.B	12F# 12B	.	12ff# 12bb
.	12F#J 12B 12f#	12dd# 12ddd#	12ff#J 12bb
24C#Jk 24c#	.	.	.
6C# 6c#	12F#L 12B	6ee 6eee	12bbL
.	12F# 12B 12f#	.	12bb
12D# 12d#	12F#J 12B	12ff# 12fff#	12bbJ
=114	=114	=114	=114
12rc	12GGG#L 12GG#	6bb 6bbb	12bbL 12fff#
12D#L 12d#	12F# 12B	.	12bb 12fff#
12F#J 12f#	12F#J 12B 12f#	12aa# 12aaa#	12bbJ 12fff#
6B 6b	12BL 12f#	[4dd# [4ddd#	12bbL
.	12F# 12B 12f#	.	12ff# 12bb
12A# 12a#	12BJ 12f#	.	12ff#J 12bb
4D# 4d#	12F#L 12B	6dd#] 6ddd#]	12ff#L 12bb
.	12B 12f# 12b	.	12ff# 12bb
.	12BJ 12f# 12b	12aa# 12aaa#	12ddd#J 12fff#
=115	=115	=115	=115
6rc	12CC#L 12C#	12aa#L 12aaa#	12dddnL 12fff#
.	12B 12f# 12b	12gg# 12ggg#	12ddd 12fff#
12A# 12a#	12dnJ 12f#	12aa#J 12aaa#	12dddJ 12fff#
12A#L 12a#	12dL 12f#	4ddn 4ddd	12ff#L 12bb
12G# 12g#	12d 12f#	.	12ff# 12bb
12A#J 12a#	12BJ 12d	.	12ff#J 12bb
4E#X 4e#X	12BL 12c#	12aa#L 12aaa#	12ccc#L 12eee#X
.	12C# 12c#	12gg# 12ggg#	12ccc# 12eee#
.	12CC#J 12C#	12aa#J 12aaa#	12ccc#J 12eee#
=116	=116	=116	=116
12rc	12FFF#L 12FF#	8dd#L 8ddd#	12aa#L 12ccc#
12A#L 12a#	12A# 12c#	.	12aa# 12ccc#
.	.	8ee#XJ 8eee#X	.
12G#J 12g#	12A#J 12c#	.	12aa#J 12ccc#
8E#XL 8e#X	12A#L 12c#	8gg#L 8ggg#	12aa#L 12ccc#
.	12A# 12c#	.	12aa# 12ccc#
8F#J 8f#	.	8ff#J 8fff#	.
.	12A#J 12c#	.	12aa#J 12ccc#
8D#L 8d#	12F#L 12A#	8b#XL 8bb#X	12ff#L 12aa#
.	12F# 12A#	.	12ff# 12aa#
8C#J 8c#	.	8cc#J 8ccc#	.
.	12F#J 12A#	.	12ff#J 12aa#
*v	*v	*	*
=117	=117	=117
24CCC#LL	6een 6eeen	12bbnL
24CC#	.	.
24C#	.	12ee 12bb
24B	.	.
*clefG2	*	*
24b	12f##X [12ff##X	12eeJ
24eJJ	.	.
24bLL 24ee	12ff##]	12rc
24e	.	.
*clefF4	*	*
24B	[6g# [6gg#	12eeL
24C#	.	.
24B	.	12g#J 12ee
24eJJ	.	.
*clefG2	*	*
24a#LL 24ee	12g#L] 12gg#]	12eeL
24e	.	.
24A#	12dd# 12ddd#	12gg#
24e	.	.
24A#	12cc#J 12ccc#	12gg#J
*clefF4	*	*
24C#JJ	.	.
=118	=118	=118
24DDD#LL	12bL 12bb	12eeL 12ff##X
24DD#	.	.
24C#	12.f#X 12.ff#X	12ee
24F##X	.	.
*clefG2	*	*
24c#J	.	12eeJ
48r	24f##XJk 24ff##X	.
48F##XJkk 48f##X	.	.
4e 4ee	[4b [4bb	12ff##L
.	.	12b 12ff##
.	.	12bJ 12ff##
6d# 6dd#	12b] 12bb]	12ff##L
.	6ggn [6gggn	12bb
12c# 12cc#	.	12ggJ 12bb
=119	=119	=119
*clefF4	*	*
24EEELL	6ggn 6ggg]	12bbL
24EE	.	.
24C#	.	12gg 12bb
24Gn	.	.
*clefG2	*	*
24gn	12a# [12aa#	12a#J 12gg
24gJJ	.	.
24ggnLL	12aa#]	12rc
24g	.	.
*clefF4	*	*
24B	[6b [6bb	12ggL
24C#	.	.
24B	.	12bJ 12gg
*clefG2	*	*
24gJJ	.	.
24bLL 24gg	12bL] 12bb]	12ggL
24g	.	.
24B	12ff# 12fff#	12bb
24g	.	.
24B	12eeJ 12eee	12bbJ
*clefF4	*	*
24C#JJ	.	.
=120	=120	=120
24FFF#LL	12dd#L 12ddd#	12ggnL 12aa#
24FF#	.	.
24E	12.an 12.aan	12gg
24A#X	.	.
*clefG2	*	*
24eJ	.	12ggJ
48r	24a#XJk 24aa#X	.
48A#Jkk 48a#	.	.
4gn 4ggn	[4dd# [4ddd#	12aa#L
.	.	12dd# 12aa#
.	.	12dd#J 12aa#
6f# 6ff#	12dd#] 12ddd#]	12aa#L
.	6cc# 6ccc#	12aa#
12e 12ee	.	12cc#J 12aa# 12ccc#
=121	=121	=121
*clefF4	*	*
24GGGnLL	4cc# 4ccc#	12eeL 12aa#
24GGn	.	.
24E	.	12cc# 12ee
24A#	.	.
*clefG2	*	*
24a#	.	12cc#J 12ee
24eJJ	.	.
24cc#LL 24ee	[4aa#	12rc
24e	.	.
24c#	.	12a#L 12ee
24E	.	.
24c#	.	12a#J 12ee
24eJJ	.	.
24cc#LL 24ee	12a# 12aa#]	12rc
24e	.	.
24b	6b 6bb	12eeL
24e	.	.
24B	.	12bJ 12ee
*clefF4	*	*
24EJJ	.	.
=122	=122	=122
24GGGnLL	4b 4bb	12ee#XL
24GGn	.	.
24Dn	.	12b 12ee#
24B	.	.
*clefG2	*	*
24b	.	12bJ 12ee#
24dnJJ	.	.
24a#LL 24ee#X	4cc# 4ccc#	12ee#L
24e#X	.	.
24A#	.	12cc# 12ee#
24C#	.	.
24A#	.	12cc#J 12ee#
24e#JJ	.	.
24bLL 24ee#	4cc##X 4ccc##X	12ee#L
24e#	.	.
24B	.	12cc## 12ee#
24e#	.	.
24B	.	12cc##J 12ee#
*clefF4	*	*
24BBJJ	.	.
=123	=123	=123
24FFF#LL	[4cc##X [4ccc##X	12ff#L 12bb
24FF#	.	.
24BB	.	12cc## 12bb
24B	.	.
*clefG2	*	*
24B	.	12cc##J 12bb
24bJJ	.	.
24bLL 24ff#	6cc##] 6ccc##]	12cc##L 12bb
24f#	.	.
24B	.	12bb
24D#	.	.
24B	12dd# 12ddd#	12bbJ
24f#JJ	.	.
24bLL 24ee#X	6aa# 6aaa#	12bbL 12eee#X
24e#X	.	.
24B	.	12aa# 12bb
24e#	.	.
24B	12gg# 12ggg#	12bbJ
24C##XJJ	.	.
=124	=124	=124
*clefF4	*	*
24FFF#LL	6ff# 6fff#	12bbL
24FF#	.	.
24C#	.	12ff# 12bb
24B	.	.
*clefG2	*	*
24b	12ff#	12ff#J
24f#JJ	.	.
24bLL 24ff#	4dd# [4ddd#	12ff#L
24f#	.	.
24B	.	12dd# 12ff#
24E	.	.
24B	.	12dd#J 12ff#
24f#JJ	.	.
24a#LL 24ff#	6dd# 6ddd#]	12ff#L
24f#	.	.
24A#	.	12dd# 12ff#
24f#	.	.
24A#	12cc# 12ccc#	12ff#J
24EJJ	.	.
=125	=125	=125
*clefF4	*	*
24AAAnLL	4cc# 4ccc#	12ff#L
24AAn	.	.
24D#	.	12cc# 12ff#
24A#X	.	.
*clefG2	*	*
24a#X	.	12cc#J 12ff#
24d#JJ	.	.
24cc#LL 24ff#	4a# [4aa#	12rc
24f#	.	.
24c#	.	12a#L 12ff#
24D#	.	.
24c#	.	12a#J 12ff#
24f#JJ	.	.
24cc#LL 24ff#	12a# 12aa#]	12rc
24f#	.	.
24B 24b	6b 6bb	12ff#L
24f#	.	.
24b	.	12bJ 12ff#
24ff#JJ	.	.
*clefF4	*	*
=126	=126	=126
12F# 12B 12f#	2dd# 2ddd#	12ff#L 12bb
12AAAnL 12AAn	.	24d#L 24f#
.	.	24F#
12AAAJ 12AA	.	24d# 24f#
.	.	24f#JJ
12AAAL 12AA	.	24dd#LL 24ff#
.	.	24f#
12AAA#X 12AA#X	.	24d# 24f#
.	.	24F#
12AAA#J 12AA#	.	24d# 24f#
.	.	24f#JJ
12AAA#L 12AA#	4cc# 4ccc#	24dd#LL 24ff#
.	.	24f#
12AAAn 12AAn	.	24d# 24f#
.	.	24F#
12AAAJ 12AA	.	24d# 24f#
.	.	24f#JJ
=127	=127	=127
24GGG#LL	6cc# 6ccc#	12eeL
24GG#	.	.
24E	.	12cc# 12ee
24A#	.	.
*clefG2	*	*
24cc#	[12a# [12aa#	12eeJ
24eJJ	.	.
24cc#LL 24ee	12a#] 12aa#]	12rc
24e	.	.
24B	6b [6bb	12eeL
24E	.	.
24B	.	12bJ 12ee
24eJJ	.	.
24bLL 24ee	12b 12bb]	12eeL
24e	.	.
24Bn	6b#X 6bb#X	12ee
24e	.	.
24B	.	12b#J 12ee
24F#JJ	.	.
=128	=128	=128
*clefF4	*	*
24GGGnLL	6dd# 6ddd#	12eeL
24GGn	.	.
24E	.	12dd# 12ee
24B	.	.
*clefG2	*	*
24bn	[12b#X [12bb#X	12eeJ
24eJJ	.	.
24bLL 24ee	12b#] 12bb#]	12eeL
24e	.	.
24B	6cc# 6ccc#	12cc# 12bbn
24C#	.	.
24B	.	12cc#J 12bb
24eJJ	.	.
24bLL 24ee#X	6bb 6bbb	12ccc#L
24e#X	.	.
24B	.	12bb 12ccc#
24e#	.	.
24B	12bb 12bbb	12ccc#J
*clefF4	*	*
24C#JJ	.	.
=129	=129	=129
24FFF#LL 24FF#	4bb 4bbb	12rc
24FFF# 24FF#	.	.
24G# 24c##X 24e#X 24g#	.	12cc##XL 12ee#X 12ccc##X
24G# 24c## 24e# 24g#	.	.
24C##X 24G# 24c##	.	12cc##J 12ee# 12ccc##
24C##JJ 24G# 24c##	.	.
24r	[4aa# [4aaa#	12rc
24C##LL 24c##	.	.
24A# 24c## 24e# 24a#	.	12cc##L 12ee# 12ccc##
24A# 24c## 24e# 24a#	.	.
24C## 24A# 24c##	.	12cc##J 12ee# 12ccc##
24C##JJ 24A# 24c##	.	.
24FFF#LL 24FF#	12aa#L] 12aaa#]	12cc##L 12gg# 12ccc##
24FFF# 24FF#	.	.
24B 24c## 24g# 24b	12een 12eeen	12gg# 12ccc##
24B 24c## 24g# 24b	.	.
24C## 24B 24c##	12ee#XJ 12eee#X	12gg#J 12ccc##
24C##JJ 24B 24c##	.	.
=130	=130	=130
24FFF#LL 24FF#	6gg# 6ggg#	12bbL 12ddd#
24FFF# 24FF#	.	.
24B 24d# 24f# 24b	.	12ff# 12bb 12ddd#
24B 24d# 24f# 24b	.	.
24D# 24B 24d# 24gn	12ggn 12gggn	12bbJ 12ddd#
24D#JJ 24B 24d#	.	.
24ELL 24B 24e	[4cc##X [4ccc##X	12ggL 12bb
24E 24B 24e	.	.
24B 24e 24g 24b	.	12gg 12bb
24B 24e 24g 24b	.	.
24E 24B 24e	.	12ggJ 12bb
24EJJ 24B 24e	.	.
24ELL 24B 24e	6cc##] 6ccc##]	12ggL 12bb
24E 24B 24e	.	.
24B 24e 24g 24b	.	12gg 12bb
24B 24e 24g 24b	.	.
24D# 24B 24d# 24f#	12dd# 12ddd#	12ff#J 12bb
24D#JJ 24B 24d#	.	.
=131	=131	=131
24FFF#LL 24FF#	[4ff# [4fff#	12rc
24FFF# 24FF#	.	.
24B#X 24d# 24an 24b#X	.	12aanL 12bb#X
24B# 24d# 24a 24b#	.	.
24D# 24B# 24d#	.	12aaJ 12bb#
24D#JJ 24B# 24d#	.	.
24D#LL 24B# 24d#	6ff#] 6fff#]	12aaL 12bb#
24D# 24B# 24d#	.	.
24B# 24d# 24a 24b#	.	12aa 12bb#
24B# 24d# 24a 24b#	.	.
24E 24B# 24e	[12ee [12eee	12aaJ 12bb#
24EJJ 24B# 24e	.	.
24F#LL 24B# 24f#	6ee] 6eee]	12aaL 12bb#
24F# 24B# 24f#	.	.
24B# 24f# 24a 24b#	.	12aa 12bb#
24B# 24f# 24a 24b#	.	.
24F# 24B# 24f#	12b#X 12bb#	12aaJ 12bb#
24F#JJ 24B# 24f#	.	.
=132	=132	=132
24FFF#LL 24FF#	6dd# 6ddd#	12gg#L 12bb#X
24FFF# 24FF#	.	.
24B#X 24e 24g# 24b#X	.	12gg# 12bb#
24B# 24e 24g# 24b#	.	.
24E 24G# 24c# 24e	12cc# 12ccc#	12gg#J
24EJJ 24G# 24c# 24e	.	.
24r	8g#L 8gg#	12rc
24FFF#LL 24FF#	.	.
24E 24An 24e	.	12cc#L
24E 24A 24e	8f#J 8ff#	.
24FFF# 24FF#	.	12cc#J
24FFF#JJ 24FF#	.	.
24r	8d#L 8dd#	12rc
24FFF#LL 24FF#	.	.
24E 24A#X 24e	.	12f#L 12a#
24E 24A# 24e	8c#J 8cc#	.
24FFF# 24FF#	.	12f#J 12a#
24FFF#JJ 24FF#	.	.
*	*v	*v
=133	=133
*^	*
.	[8qBBB\ [8qBB	.
4D# 4F#	12BBBL] 12BB]	4B 4d# 4f# 4b
.	12.FFF# 12.FF#	.
.	24DDD#Jk 24DD#	.
4rc	4.DDD# 4.DD#	4F# 4B 4f#
4rc	.	4F##X 4B 4f#X 4f##X
.	8DDD# 8DD#	.
=134	=134	=134
*	*	*^
2.ryy	12DDD#L 12DD#	4G#X 4B 4e#X 4g#X	4rc
.	12.CCC##X 12.CC##X	.	.
.	24BBBJk 24BB	.	.
.	4BBB 4BB	[4An 4c##X 4e# [4an	4rc
.	4CCC## 4CC##	12AL] 12a]	4B 4e#
.	.	12G# 12g#	.
.	.	12GnJ 12gn	.
*	*	*v	*v
=135	=135	=135
2.ryy	4DDD# 4DD#	12F#L 12B 12f#
.	.	12B 12b
.	.	24r
.	.	24d#Jk 24dd#
.	16EEELL 16EE	4d# 4gn 4b 4dd#
.	16D#JJ 16Gn 16B	.
.	8r	.
.	16C#LL 16G 16B	4c#X 4g 4b 4cc#X
.	16EEE#XJJ 16EE#X	.
.	8r	.
=136	=136	=136
2.ryy	16FFF#LL 16FF#	24bLL 24cc#
.	.	24f#
.	16EJJ 16B	.
.	.	24c#
.	8r	24F#
.	.	[24c#
.	.	24c#JJ_ [24f#
.	8r	8c#] 8f#] 8cc#
.	4FF# 4E 4F#	4G#X 4B 4f# 4g#X
.	8FF# 8E 8F#	8A# 8c# 8f# 8a#
=137	=137	=137
.	[8qBBB [8qBB	.
4D# 4F#	12BBBL] 12BB]	4B 4d# 4f# 4b
.	12.FFF# 12.FF#	.
.	24DDD#Jk 24DD#	.
4rc	4.DDD# 4.DD#	4F# 4B 4f#
4rc	.	4F##X 4B 4f#X 4f##X
.	8DDD# 8DD#	.
=138	=138	=138
*	*	*^
2.ryy	12DDD#L 12DD#	4G#X 4B 4e#X 4g#X	4rc
.	12.CCC##X 12.CC##X	.	.
.	24BBBJk 24BB	.	.
.	4BBB 4BB	[4An 4c##X 4e# [4an	4rc
.	4CCC## 4CC##	12AL] 12a]	4B 4e#
.	.	12G# 12g#	.
.	.	12GnJ 12gn	.
*	*	*v	*v
=139	=139	=139
2.ryy	12DD#L 12D#	4F# 4B 4f#
.	12.BBB 12.BB	.
.	24FFF#Jk 24FF#	.
.	4.FFF# 4.FF#	4A# 4d# 4f# 4a#
.	.	4B 4d# 4f# 4b
.	8FFF# 8FF#	.
=140	=140	=140
*	*	*^
2.ryy	12FFF#L 12FF#	4B#X 4e 4a# 4b#X	4rc
.	12.GGGn 12.GGn	.	.
.	24EEJk 24E	.	.
.	4EE 4E	4c# 4gn 4a# 4cc#	4rc
.	4GGG 4GG	12dnL 12ddn	4e 4a#
.	.	12c# 12cc#	.
.	.	12cnJ 12ccn	.
*	*	*v	*v
=141	=141	=141
2.ryy	12FF#L 12F#	4B 4d# 4b
.	12.DD# 12.D#	.
.	24BBBJk 24BB	.
.	4.BBB 4.BB	4c##X 4f# 4b 4cc##X
.	.	4d# 4f# 4b 4dd#
.	8BBB 8BB	.
=142	=142	=142
*	*	*^
2.ryy	12BBBL 12BB	4d# 4f# 4a# 4dd#	4rc
.	12.CCn 12.Cn	.	.
.	24AA#Jk 24A#	.	.
.	4AA# 4A#	4e 4f# 4a# 4ee	4rc
.	8CCL 8C	12f#L 12ff#	4a#
.	.	12e#X 12ee#X	.
.	8F#J 8A# 8f#	.	.
.	.	12enJ 12een	.
=143	=143	=143	=143
2.ryy	12FnL 12An 12fn	4d# 4dd#	4an
.	12CCn 12Cn	.	.
.	12BBBJ 12BB	.	.
.	8BBB-XL 8BB-X	12eL 12ee	4g#
.	.	12d# 12dd#	.
.	8EJ 8G#X 8e	.	.
.	.	12dnJ 12ddn	.
.	12E-XL 12Gn 12e-X	4c#X 4cc#X	4gn
.	12BBB- 12BB-	.	.
.	12AAAnJ 12AAn	.	.
=144	=144	=144	=144
4rc	8AAA-XL 8AA-X	12dnL 12ddn	4f#
.	.	12c# 12cc#	.
.	8DnJ 8F# 8dn	.	.
.	.	12cnJ 12ccn	.
4rc	12C#L 12E#X 12c#	[4B [4b	4e#X
.	12AAAn 12AAn	.	.
.	12GGG#J 12GG#	.	.
4E#	12DL 12d	12BL] 12b]	4e#
.	12C# 12c#	12c#X 12cc#X	.
.	24BBL 24B	12c##XJ 12cc##X	.
.	24GGGnJJ 24GGn	.	.
*	*	*v	*v
=145	=145	=145
2.ryy	12DD#XL 12D#X	12F#L 12B 12f#
.	12BBB 12BB	12B 12b
.	12FFF#J 12FF#	24r
.	.	24d#Jk 24f# 24b 24dd#
.	16EEELL 16EE	4d# 4gn 4b 4dd#
.	16D#JJ 16Gn 16B	.
.	8r	.
.	16C#LL 16G 16B	4c# 4g 4b 4cc#
.	16EEE#XJJ 16EE#X	.
.	8r	.
=146	=146	=146
2.ryy	16FFF#LL 16FF#	24bLL 24cc#
.	.	24f#
.	16EJJ 16B	.
.	.	24c#
.	8r	24F#
.	.	[24c#
.	.	24c#JJ_ [24f#
.	8r	8c#] 8f#] 8cc#
.	4FF# 4E 4F#	4G#X 4B 4f# 4g#X
.	8FF# 8E 8F#	8A# 8c# 8f# 8a#
=147	=147	=147
.	[8qBBB\ [8qFF# [8qBB	.
2D# 2F#	2BBB] 2FF#] 2BB]	12BL 12d# 12f# 12b
.	.	12.F# 12.f#
.	.	24D#Jk 24d#
.	.	4D# 4F# 4B 4d#
4rc	4FFF# 4FF#	4r
=148	=148	=148
2.ryy	2BBB 2FF# 2BB	12BL 12d# 12f# 12b
.	.	12.F# 12.f#
.	.	24D#Jk 24d#
.	.	4D# 4F# 4B 4d#
.	4FFF# 4FF#	4r
*v	*v	*
=149	=149
2GGGn 2GGn	12BL 12d# 12b
.	12.Gn 12.gn
.	24D#Jk 24d#
.	4D# 4G 4B 4d#
4GGG 4GG	4r
=150||	=150||
*k[f#c#]	*k[f#c#]
2GGG 2GG	12cnL 12e 12ccn
.	12.G 12.g
.	24EJk 24e
.	4E 4c 4e
*	*clefF4
4GGG#X 4GG#X	12EL
.	12.Cn
.	24EEJk
=151	=151
*	*clefG2
*	*^
12AAAL 12AA	4E 4A 4cn 4e	4rc
12.EEE 12.EE	.	.
24CCCnJk 24CCn	.	.
4.CCC 4.CC	4c 4e 4a 4ccn	4rc
.	24BLL 24b	8eL
.	24B-X 24b-X	.
.	24A 24a	.
8AAA 8AA	24D#XJ 24d#X	8AJ 8c
.	24r	.
.	24EJk 24e	.
=152	=152	=152
12AAAL 12AA	4.G 4.g	4cn 4d#X
12.DDD#X 12.DD#X	.	.
24CCCnJk 24CCn	.	.
4CCC 4CC	.	4A 4d#
.	4F# 4f#	.
4CC 4AA 4D#X	.	4A 4d#
.	8Fn 8fn	.
*	*v	*v
=153	=153
4CCn 4AA 4E	4E 4A 4e
24CCLL	4r
24AA	.
24E	.
24AA	.
24E	.
24AJJ	.
24ELL	12r
24A	.
24e	12eeL 12aa 12eee
24a	.
24e	12eeJ 12aa 12eee
24AJJ	.
=154	=154
*	*^
12E 12A 12e	24ee 24aa 24eee	6rc
.	24ELL	.
[6CCn [6Cn	24B	.
.	24G#X	.
.	24A	[12A
.	24cnJJ	.
2CC] 2C]	24fnLL	4A]
.	24d#X	.
.	24f	.
.	24e	.
.	24c	.
.	24G#JJ	.
.	24BLL	4rc
.	24A	.
.	24Fn	.
.	24D#X	.
.	24F	.
.	24EJJ	.
=155	=155	=155
*^	*	*
4rc	12AAAL 12AA	4E 4e	24rc
.	.	.	24ALL
.	12.EEE 12.EE	.	24d
.	.	.	24B
.	.	.	24cn
.	24CCCnJk 24CCn	.	24eJJ
12rc	[4CCC [4CC	4c 4ccn	24gLL 24a
.	.	.	24e
12.AA 12.A	.	.	24g
.	.	.	24fn
.	.	.	24f
24AA 24A	.	.	24d#XJJ
12GG#XL 12G#X	6CCC] 6CC]	24BLL 24b	24fLL
.	.	24B-X 24b-X	24e
12AAJ 12A	.	24A 24a	24c
.	.	24D#XJ 24d#	24A
12rc	12CCC 12CC	24r	24Bn
.	.	24EJk 24e	24AJJ
=156	=156	=156	=156
*	*	*	*^
2.ryy	12CCCnL 12CCn	2G 2g	24rc	24r
.	.	.	24A#XLL	12.A#/
.	12.CCC#X 12.CC#X	.	24f#	.
.	.	.	24d#X	.
.	.	.	24e	[12e/
.	24AAA#XJk 24AA#X	.	24gJJ	.
.	4AAA# 4AA#	.	24ddLL	4e/]
.	.	.	24ccn	.
.	.	.	24dd	.
.	.	.	24cc#X	.
.	.	.	24f#	.
.	.	.	24d#XJJ	.
.	4CCC# 4CC#	4F# 4f#	24f#LL	12A#/
.	.	.	24e	.
.	.	.	24B	12r
.	.	.	24An	.
.	.	.	24B	12r
.	.	.	24A#XJJ	.
*	*	*	*v	*v
=157	=157	=157	=157
4rc	12BBBL 12BB	4F# 4f#	24rc
.	.	.	24BLL
.	12.FFF# 12.FF#	.	24e
.	.	.	24c#
.	.	.	24d
.	24DDDJk 24DD	.	24f#JJ
12rc	[4DDD [4DD	4d 4b 4dd	24anLL
.	.	.	24f#
12.BB 12.B	.	.	24a
.	.	.	24g
.	.	.	24g
24BB 24B	.	.	24e#XJJ
12AA#XL 12A#X	6DDD] 6DD]	24c#LL 24cc#	24gLL
.	.	24cn 24ccn	24f#
12BBJ 12B	.	24B 24b	24d
.	.	24E#XJ 24e#X	24B
12rc	12DDD 12DD	24r	24c
.	.	24F#Jk 24f#	24BJJ
=158	=158	=158	=158
*	*	*	*^
2.ryy	12DDDL 12DD	2A 2a	24rc	24r
.	.	.	24B#XLL	12.B#/
.	12.DDD#X 12.DD#X	.	24g#X	.
.	.	.	24e#X	.
.	.	.	24f#	[12f#/
.	24BBB#XJk 24BB#X	.	24aJJ	.
.	4BBB# 4BB#	.	24eenLL	4f#/]
.	.	.	24dd	.
.	.	.	24ee	.
.	.	.	24dd#X	.
.	.	.	24g#	.
.	.	.	24e#XJJ	.
.	4DDD# 4DD#	4G#X 4g#	24g#LL	12B#/
.	.	.	24f#	.
.	.	.	24c#	12r
.	.	.	24Bn	.
.	.	.	24c#	12r
.	.	.	24B#XJJ	.
*	*	*	*v	*v
=159	=159	=159	=159
4rD	12CCnL 12Cn	4G 4g	24rc
.	.	.	24cnLL
.	12.GGG 12.GG	.	24fn
.	.	.	24d
.	.	.	24e
.	24EEEJk 24EE	.	24gJJ
12rc	[4EEE [4EE	4e 4ccn 4ee	24bLL
.	.	.	24g
12.Cn 12.cn	.	.	24b
.	.	.	24a
.	.	.	24a
24C 24c	.	.	24f#XJJ
12BBL 12B	6EEE] 6EE]	24dLL 24dd	24aLL
.	.	24d-X 24dd-X	24g
12CJ 12c	.	24c 24cc	24e
.	.	24F#J 24f#X	24c
12rc	12EEE 12EE	24r	24dn
.	.	24GJk 24g	24cJJ
*v	*v	*	*
=160	=160	=160
*	*^	*^
[4FFn	2cn 2ccn	24dLL 24g	6r	4r
.	.	24F#X	.	.
.	.	24G	.	.
.	.	24c#X	.	.
.	.	24e	24r	.
.	.	24dJJ	[24d/	.
2FFFn 2FF]	.	24aLL	4d/]	12.r
.	.	24f#X	.	.
.	.	24a	.	.
.	.	24g	.	12.g/
.	.	24e	.	.
.	.	24c#JJ	.	.
.	4B 4b	24eLL 24g	4r	4r
.	.	24d	.	.
.	.	24A	.	.
.	.	24F#	.	.
.	.	24A	.	.
.	.	24GJJ	.	.
*	*	*v	*v	*v
=161	=161	=161
*^	*	*
4rD	12CCnL 12Cn	4G 4g	24rc
.	.	.	24cnLL
.	12.GGG 12.GG	.	24fn
.	.	.	24d
.	.	.	24e
.	24EEEJk 24EE	.	24gJJ
12rc	[4EEE [4EE	4e 4ccn 4ee	24bLL
.	.	.	24g
12.Cn 12.cn	.	.	24b
.	.	.	24a
.	.	.	24a
24C 24c	.	.	24f#XJJ
12BBL 12B	6EEE] 6EE]	24dLL 24dd	24aLL
.	.	24d-X 24dd-X	24g
12CJ 12c	.	24c 24cc	24e
.	.	24F#J 24f#X	24c
12rc	12EEE 12EE	24r	24dn
.	.	24GJk 24g	24cJJ
*v	*v	*	*
=162	=162	=162
*	*^	*^
[4FFn	2cn 2ccn	24dLL 24g	6r	4r
.	.	24F#X	.	.
.	.	24G	.	.
.	.	24c#X	.	.
.	.	24e	24r	.
.	.	24dJJ	[24d/	.
2FFFn 2FF]	.	24aLL	4d/]	12.r
.	.	24f#X	.	.
.	.	24a	.	.
.	.	24g	.	12.g/
.	.	24e	.	.
.	.	24c#JJ	.	.
.	4B 4b	24eLL 24g	4r	4r
.	.	24d	.	.
.	.	24A	.	.
.	.	24F#	.	.
.	.	24A	.	.
.	.	24GJJ	.	.
=163	=163	=163	=163	=163
[4EE#X	2cn 2ccn	24dLL 24g	6r	4r
.	.	24F#X	.	.
.	.	24G	.	.
.	.	24c#X	.	.
.	.	24en	24r	.
.	.	24dJJ	[24d/	.
2EEE#X 2EE#]	.	24aLL	4d/]	12.r
.	.	24f#X	.	.
.	.	24a	.	.
.	.	24g	.	12.g/
.	.	24e	.	.
.	.	24c#JJ	.	.
.	4B 4b	24eLL 24g	4r	4r
.	.	24d	.	.
.	.	24A	.	.
.	.	24F#	.	.
.	.	24A	.	.
.	.	24GJJ	.	.
*	*	*v	*v	*v
=164	=164	=164
24r	6ccn	4g
24EE#XLL	.	.
24G	.	.
24c#X	.	.
24en	12b	.
24dJJ	.	.
*clefG2	*	*
24aLL	6cc	4rc
24f#	.	.
24a	.	.
24g	.	.
24e	12b	.
24c#XJJ	.	.
*clefF4	*	*
24eLL	6cc#X	4g
24d	.	.
24A	.	.
24F#	.	.
24A	12b	.
24GJJ	.	.
=165	=165	=165
*	*	*^
24eLL	12cc#L	4a	4f#\
24A	.	.	.
24F#	12.b	.	.
24A	.	.	.
24F#	.	.	.
24FF#JJ	24cc#Jk	.	.
24F#LL	6cc#	4a	4f#\
24A	.	.	.
24F#	.	.	.
24A	.	.	.
24d	12dd	.	.
24AJJ	.	.	.
24dLL	12ddL	4dd	4a\
24A	.	.	.
24F#	12ee	.	.
24FF#	.	.	.
24F#	12ff#J	.	.
24AJJ	.	.	.
=166	=166	=166	=166
24dLL	6aa	4dd	4b\
24B	.	.	.
24E	.	.	.
24B	.	.	.
24E	12gg	.	.
24FF#JJ	.	.	.
24ELL	[4b	6a	4d\
24FF#	.	.	.
24FF#	.	.	.
24FFF#	.	.	.
24FF#	.	12g	.
24FF#JJ	.	.	.
24ELL	6b]	6B	4r
24G	.	.	.
24E	.	.	.
24G	.	.	.
24d	12b	12rc	.
24GJJ	.	.	.
=167	=167	=167	=167
24dLL	12bL	4g	4e\
24G	.	.	.
24E	12.a	.	.
24G	.	.	.
24E	.	.	.
24FF#JJ	24bJk	.	.
24ELL	6b	4g	4e\
24G	.	.	.
24E	.	.	.
24G	.	.	.
24c#	12cc#	.	.
24GJJ	.	.	.
24c#LL	12cc#L	4g	4r
24G	.	.	.
24E	12dd	.	.
24FF#	.	.	.
24E	12eeJ	.	.
24GJJ	.	.	.
=168	=168	=168	=168
24c#LL	6gg	4cc#	4a\
24A	.	.	.
24D	.	.	.
24A	.	.	.
24D	12ff#	.	.
24FF#JJ	.	.	.
24DLL	[4a	6g	4c#\
24FF#	.	.	.
24FF#	.	.	.
24FFF#	.	.	.
24FF#	.	12f#	.
24FF#JJ	.	.	.
24DLL	6a]	6A	4r
24F#	.	.	.
24D	.	.	.
24F#	.	.	.
24c#	12a	12rc	.
24F#JJ	.	.	.
=169	=169	=169	=169
24c#LL	12aL	4f#	4d\
24F#	.	.	.
24D	12.g	.	.
24F#	.	.	.
24D	.	.	.
24FF#JJ	24aJk	.	.
24DLL	6a	4f#	4d\
24F#	.	.	.
24D	.	.	.
24F#	.	.	.
24B	12b	.	.
24F#JJ	.	.	.
24BLL	12bL	4f#	4d\
24F#	.	.	.
24D	12cc#	.	.
24FF#	.	.	.
24D	12ddJ	.	.
24F#JJ	.	.	.
=170	=170	=170	=170
*	*	*	*^
24BLL	4.ff#	4b	4g\	4.d#X\
24G	.	.	.	.
24C#	.	.	.	.
24G	.	.	.	.
24C#	.	.	.	.
24FF#JJ	.	.	.	.
24C#LL	.	4b	4g\	.
24FF#	.	.	.	.
24FF#	.	.	.	.
24FFF#	4ee	.	.	4e\
24FF#	.	.	.	.
24FF#JJ	.	.	.	.
24C#LL	.	4b	4g\	.
24G	.	.	.	.
24C#	.	.	.	.
24G	8b	.	.	8e\
24B	.	.	.	.
24GJJ	.	.	.	.
=171	=171	=171	=171	=171
24BLL	4.cc#	4b	4g\	2.e#X\
24G	.	.	.	.
24C#	.	.	.	.
24G	.	.	.	.
24C#	.	.	.	.
24FF#JJ	.	.	.	.
24C#LL	.	4b	4g\	.
24FF#	.	.	.	.
24FF#	.	.	.	.
24FFF#	4cc#	.	.	.
24FF#	.	.	.	.
24FF#JJ	.	.	.	.
24C#LL	.	4b	4g\	.
24G	.	.	.	.
24C#	.	.	.	.
24G	8cc#	.	.	.
24B	.	.	.	.
24GJJ	.	.	.	.
=172	=172	=172	=172	=172
24A#XLL	2cc#	2a#X	2f#\	2f#\
24F#	.	.	.	.
24C#	.	.	.	.
24F#	.	.	.	.
24C#	.	.	.	.
24FF#JJ	.	.	.	.
24C#LL	.	.	.	.
24FF#	.	.	.	.
24FF#	.	.	.	.
24FFF#	.	.	.	.
24FF#	.	.	.	.
24FF#JJ	.	.	.	.
24C#LL	4raa	4rc	4r	4r
24A#	.	.	.	.
24c#	.	.	.	.
24f#	.	.	.	.
24a#X	.	.	.	.
24cc#JJ	.	.	.	.
*	*	*	*v	*v
=173	=173	=173	=173
12EL 12B	12ff#L	24gLL	4r
.	.	24b	.
12EE 12E	12.ee	24g	.
.	.	24b	.
12FFF#J 12FF#	.	24g	.
.	24ff#Jk	24bJJ	.
12EL 12B	6ff#	24f#LL	12f#/L
.	.	24b	.
12EE 12E	.	24e	12.e/
.	.	24b	.
12FFF#J 12FF#	12gg	24gg	.
.	.	24f#JJ	24f#/Jk
12EL 12d	12raa	24f#LL	6f#/
.	.	24ee	.
12EE 12E	12aaL	24aa	.
.	.	24ee	.
12FFF#J 12FF#	12bbJ	24g	12g/
.	.	24eeJJ	.
=174	=174	=174	=174
12EL 12B	6ddd	24ddLL	6g/
.	.	24ee	.
12FFF# 12FF#	.	24dd	.
.	.	24ee	.
12EJ 12cn	12cccn	24ccn	12a/
.	.	24eeJJ	.
8EL 8A 8e	4ee	24ddLL	6dd\
.	.	24a	.
.	.	24e	.
8FFF#J 8FF#	.	24a	.
.	.	24cc	12cc\
.	.	24eJJ	.
4FF# 4E	6e	24dLL	4r
.	.	24A	.
.	.	24cn	.
.	.	24e	.
.	12raa	24a	.
.	.	24ccJJ	.
=175	=175	=175	=175
12DL 12cn	12eeL	24f#LL	4r
.	.	24a	.
12DD 12D	12.dd	24f#	.
.	.	24a	.
12FFF#J 12FF#	.	24f#	.
.	24eeJk	24aJJ	.
12DL 12c	6ee	24eLL	12e/L
.	.	24a	.
12DD 12D	.	24d	12.d/
.	.	24a	.
12FFF#J 12FF#	12ff#	24ff#	.
.	.	24eJJ	24e/Jk
12DL 12c	12raa	24eLL	6e/
.	.	24dd	.
12DD 12D	12ggL	24gg	.
.	.	24dd	.
12FFF#J 12FF#	12aaJ	24f#	12f#/
.	.	24ddJJ	.
=176	=176	=176	=176
12DL 12A	6cccn	24ccnLL	6f#/
.	.	24dd	.
12FFF# 12FF#	.	24cc	.
.	.	24dd	.
12DJ 12B	12bb	24b	12g/
.	.	24ddJJ	.
8DL 8G 8d	4dd	24ccLL	6cc\
.	.	24g	.
.	.	24d	.
8FFF#J 8FF#	.	24g	.
.	.	24b	12b\
.	.	24dJJ	.
4r	6d	24cnLL	4r
.	.	24G	.
.	.	24B	.
.	.	24d	.
.	12raa	24g	.
.	.	24bJJ	.
=177	=177	=177	=177
12EL 12G	12ddL	24eLL	4r
.	.	24g	.
12EE 12E	12.ccn	24e	.
.	.	24g	.
12FFF#J 12FF#	.	24e	.
.	24ddJk	24gJJ	.
12EL 12G	6dd	24dLL	12d/L
.	.	24g	.
12EE 12E	.	24cn	12.c/
.	.	24g	.
12FFF#J 12FF#	12ee	24ee	.
.	.	24dJJ	24d/Jk
12CnL 12A	12raa	24dLL	6d/
.	.	24cc	.
12FFF# 12FF#	12ff#L	24ff#	.
.	.	24cc	.
12EJ 12G	12ggJ	24e	12e/
.	.	24ccJJ	.
=178	=178	=178	=178
12DL 12B	12aaL	24eLL	4r
.	.	24b	.
12DD 12D	12.gg	24gg	.
.	.	24b	.
12FFF#J 12FF#	.	24e#X	.
.	24aaJk	24aaJJ	.
12DL 12E#X 12d	12aaL	24aLL	12a/L
.	.	24ee#X	.
12DD 12D	12aa#X	24g	12.g/
.	.	24ee#	.
12FFF#J 12FF#	12bbJ	24bb	.
.	.	24anJJ	24a/Jk
12DL 12G#X 12d	12raa	24a#XLL	6a#/
.	.	24ee#	.
12DD 12D	12ccc#XL	24ccc#	.
.	.	24ee#	.
12FFF#J 12FF#	12dddJ	24b	12b\
.	.	24ee#JJ	.
*	*v	*v	*v
=179	=179
8DL 8F# 8B 8d	24dddLL 24fff#
.	24bb
.	24dd
8FFF#J 8FF#	24ff#
.	24bb
.	24bJJ
4r	24ddLL 24ff#
.	24b
.	24d
.	24f#
.	24b
.	24BJJ
4r	24f#LL
.	24b
.	24dd
.	24ff#
.	24bb
.	24fff#JJ
=180	=180
8C#L 8G 8B 8e	24eeeLL 24ggg
.	24bb
.	24ee
8FFF#J 8FF#	24gg
.	24bb
.	24bJJ
4r	24eeLL 24gg
.	24b
.	24e
.	24g
.	24b
.	24eeJJ
8C#L 8F# 8A#X 8e	24a#XLL 24aa#X
.	24ee
.	24a#
8FFF#J 8FF#	24a#
.	24e
.	24A#XJJ
=181	=181
18.BBB 18.BB 18.F#	36BLLL 36d 36b
.	36f#
.	36b
36F#LLL	36f#
36B	36dd
36f#	36bb
*clefG2	*
36d	36ff#
36b	36ddd
36ff#JJJ	36bbbJJJ
*clefF4	*
4D 4d	4r
24C#LL 24c#	4r
24Cn 24cn	.
24BB 24B	.
24EE# 24E#	.
24r	.
24FF#JJ 24F#	.
=182	=182
*	*^
32BBLLL 32B	4r	4r
32F#	.	.
32BB	.	.
32D	.	.
32FF#	.	.
32BBB	.	.
32BBB	.	.
32BBBBJJJ	.	.
4AA# 4F# 4A#	4d 4dd	4f#
4AAn 4D# 4An	24c#LL 24cc#	8f#
.	24cn 24ccn	.
.	24B 24b	.
.	24E# 24e#	8r
.	24r	.
.	24F#JJ 24f#	.
=183	=183	=183
*^	*	*
32GLLL	8.r	4B 4b	4f#
32D#	.	.	.
32GG	.	.	.
32BBB	.	.	.
32BBBB	.	.	.
32BBB	.	.	.
32GG	[16GG	.	.
[32EJJJ	.	.	.
16.E] 16.G	16.GG]	4cn 4ccn	32cnLLL
.	.	.	32e
.	.	.	32ccn
32ELLL	32r	.	32g
32cn	8r	.	32ee
32g	.	.	32cccn
*clefG2	*	*	*
32e	.	.	32gg
32ccnJJJ	.	.	32eeeJJJ
36ggLLL	4r	9r	36ccccnLLL
36cc	.	.	36eee
36e	.	.	36gg
36g	.	.	36ccc
36cn	.	9r	36ee
36E	.	.	36g
*clefF4	*	*	*
36GJJJ	.	.	36cc
18r	.	.	36e
.	.	36G 36g	36GJJJ
=184	=184	=184	=184
*	*	*	*^
32ELLL	8.r	4B 4b	4r	4e
32Cn	.	.	.	.
32FF#	.	.	.	.
32BBB	.	.	.	.
32BBBB	.	.	.	.
32BBB	.	.	.	.
32FF#JJJ	[16FF#	.	.	.
[32C	.	.	.	.
16.C] 16.E	16.FF#]	4A# 4a#	4r	32A#LLL
.	.	.	.	32e
.	.	.	.	32a#
32ELLL	32r	.	.	32f#
32A#	8r	.	.	32ee
32f#	.	.	.	32aa#
*clefG2	*	*	*	*
32e	.	.	.	32ff#
32a#JJJ	.	.	.	32eeeJJJ
36ff#LLL	4r	9r	9r	36aaa#LLL
36a#	.	.	.	36eee
36e	.	.	.	36ff#
*clefF4	*	*	*	*
36f#	.	.	.	36aa#
36A#	.	18.r	18r	36ee
36E	.	.	.	36f#
36F#JJJ	.	.	18.a#	36a#
18r	.	18e	.	36e
.	.	.	.	36A#JJJ
=185	=185	=185	=185	=185
*v	*v	*	*	*
*	*v	*v	*
*	*v	*v
18.BBB 18.FF# 18.BB 18.D#	36BLLL 36d# 36b
.	36f#
.	36b
36F#LLL	36f#
36B	36dd#
36f#	36bb
*clefG2	*
36d#	36ff#
36b	36ddd#
36ff#JJJ	36bbbJJJ
*clefF4	*
4D# 4d#X	4r
24DnLL 24dn	4r
24Cn 24cn	.
24BB 24B	.
24EE# 24E#	.
24r	.
24FF#JJ 24F#	.
=186	=186
*	*^
32BBLLL 32B	4r	4r
32F#	.	.
32BB	.	.
32D#	.	.
32FF#	.	.
32BBB	.	.
32BBB	.	.
32BBBBJJJ	.	.
4AA# 4F# 4A#	4d# 4dd#	4f#
4AAn 4D# 4An	24dnLL 24ddn	8f#
.	24cn 24ccn	.
.	24B 24b	.
.	24E# 24e#	8r
.	24r	.
.	24F#JJ 24f#	.
=187	=187	=187
*^	*	*
32GLLL	8.r	4B 4b	4f#
32D#	.	.	.
32GG	.	.	.
32BBB	.	.	.
32BBBB	.	.	.
32BBB	.	.	.
32GG	[16GG	.	.
[32EJJJ	.	.	.
16.E] 16.G	16.GG]	4cn 4ccn	32cnLLL
.	.	.	32e
.	.	.	32ccn
32ELLL	32r	.	32g
32cn	8r	.	32ee
32g	.	.	32cccn
*clefG2	*	*	*
32e	.	.	32gg
32ccnJJJ	.	.	32eeeJJJ
36ggLLL	4r	9r	36ccccnLLL
36cc	.	.	36eee
36e	.	.	36gg
36g	.	.	36ccc
36cn	.	9r	36ee
36E	.	.	36g
*clefF4	*	*	*
36GJJJ	.	.	36cc
18r	.	.	36e
.	.	36G 36g	36GJJJ
=188	=188	=188	=188
*	*	*	*^
32ELLL	8.r	4B 4b	4r	4e
32Cn	.	.	.	.
32FF#	.	.	.	.
32BBB	.	.	.	.
32BBBB	.	.	.	.
32BBB	.	.	.	.
32FF#JJJ	[16FF#	.	.	.
[32C	.	.	.	.
16.C] 16.E	16.FF#]	4A# 4a#	4r	32A#LLL
.	.	.	.	32e
.	.	.	.	32a#
32ELLL	32r	.	.	32f#
32A#	8r	.	.	32ee
32f#	.	.	.	32aa#
*clefG2	*	*	*	*
32e	.	.	.	32ff#
32a#JJJ	.	.	.	32eeeJJJ
36ff#LLL	4r	9r	9r	36aaa#LLL
36a#	.	.	.	36eee
36e	.	.	.	36ff#
*clefF4	*	*	*	*
36f#	.	.	.	36aa#
36A#	.	18.r	18r	36ee
36E	.	.	.	36f#
36F#JJJ	.	.	18.a#	36a#
18r	.	18e	.	36e
.	.	.	.	36A#JJJ
=189	=189	=189	=189	=189
*v	*v	*	*	*
*	*v	*v	*
*	*v	*v
18.BBB 18.FF# 18.BB 18.D#	36BLLL 36d# 36b
.	36f#
.	36b
36F#LLL	36f#
36B	36dd#
36f#	36bb
*clefG2	*
36d#	36ff#
36b	36ddd#
36ff#JJJ	36bbbJJJ
*clefF4	*
4D# 4d#X	12r
.	12BL 12f# 12b
.	12BJ 12f# 12b
24CnLL 24cn	4r
24BB 24B	.
24FF# 24F#	.
24DDn 24Dn	.
24r	.
24DD#JJ 24D#	.
=190	=190
*^	*
12.r	4FF# 4F#	24BLL 24d# 24b
.	.	24f#
.	.	24b
24D#LL	.	24f#
24B	.	24dd#
24f#JJ	.	24bbJJ
4r	4BB 4B	12r
.	.	12BL 12d# 12f# 12b
.	.	12BJ 12d# 12f# 12b
4r	24GGLL 24G	4r
.	24FF# 24F#	.
.	24DD# 24D#	.
.	24AAA# 24AA#	.
.	24r	.
.	24BBBJJ 24BB	.
*v	*v	*
=191	=191
4DD# 4D#	20BLL 20b
.	20f#
.	20B
.	20f#
.	20bJJ
4FF# 4F#	12r
.	12BL 12d# 12f# 12b
.	12BJ 12d# 12f# 12b
24EELL 24E	4r
24DD# 24D#	.
24BBB 24BB	.
24EEE# 24EE#	.
24r	.
24FFF#JJ 24FF#	.
=192	=192
[4BBB [4BB	12r
.	12BL 12d# 12f# 12b
.	12BJ 12d# 12f# 12b
12BBBL] 12BB]	12BL 12d# 12f# 12b
12BB 12B	12B 12b
12BBJ 12B	12BJ 12b
12BBL 12B	12BL 12b
12BB 12B	12B 12b
12BBJ 12B	12BJ 12b
=193	=193
*^	*^
*^	*	*	*
4r	12BBL 12B	4r	4cn 4ccn	2e 2g 2b
.	12GG 12G	.	.	.
.	12EEJ 12E	.	.	.
.	[8qEE [8qE	.	.	.
4cn 4g 4ccn	4.EE] 4.E]	8r	4b 4ee 4gg 4bb	.
.	.	24EEELLL 24BBB 24EE	.	.
.	.	24EEE 24BBB 24EE	.	.
.	.	24EEEJJJ 24BBB 24EE	.	.
4r	.	8EEE 8BBB 8EE	20a#LL 20ee 20gg 20aa#	4r
.	.	.	20g 20gg	.
.	.	.	20e 20ee	.
.	8BB 8B	8r	.	.
.	.	.	20B 20b	.
.	.	.	20cJJ 20cc	.
=194	=194	=194	=194	=194
4r	12BBL 12B	4r	4c#X 4cc#X	2e 2g 2b
.	12GG 12G	.	.	.
.	12EEJ 12E	.	.	.
.	[8qEE [8qE	.	.	.
4c#X 4g 4cc#X	4.EE] 4.E]	8r	[4b [4bb	.
.	.	24EEELLL 24BBB 24EE	.	.
.	.	24EEE 24BBB 24EE	.	.
.	.	24EEEJJJ 24BBB 24EE	.	.
4r	.	8EEE 8BBB 8EE	24bLL] 24bb]	4r
.	.	.	24g 24gg	.
.	.	.	24e 24ee	.
.	8BB 8B	8r	24B 24b	.
.	.	.	24c# 24cc#	.
.	.	.	24c##JJ 24cc##	.
*	*	*	*v	*v
*	*v	*v	*
*v	*v	*
=195	=195
12BBBL 12BB	4d# 4f# 4b 4dd#
12FFF# 12FF#	.
12BBBBJ 12BBB	.
12FF#L 12F#	4r
12BBB 12BB	.
12FFF#J 12FF#	.
12BBL 12B	4b 4dd# 4ff# 4bb
12FF# 12F#	.
12BBBJ 12BB	.
=196	=196
4d# 4f# 4dd#	4b 4ff# 4bb
4r	4r
*	*clefF4
4BBBB 4BBB 4FF#	4BB 4D# 4F# 4B
=197	=197
2.BBBB 2.BBB 2.FF#	2.BB 2.D# 2.F# 2.B
==	==
*-	*-
!!!system-decoration: {(s1,s2)}
